<?xml version="1.0" encoding="UTF-8"?>
<map version="1.10" tiledversion="1.11.2" orientation="orthogonal" renderorder="right-down" width="40" height="30" tilewidth="32" tileheight="32" infinite="0" nextlayerid="14" nextobjectid="61">
 <editorsettings>
  <export target="map2.tmj" format="json"/>
 </editorsettings>
 <tileset firstgid="1" source="tileset2.tsx"/>
 <layer id="1" name="Tile Layer 1" width="40" height="30">
  <data encoding="csv">
12,12,12,12,12,12,12,12,12,12,12,45,35,35,35,35,35,35,35,35,35,35,35,35,35,35,35,35,35,35,35,35,45,45,45,45,45,45,45,45,
12,12,12,12,12,12,12,35,12,35,35,45,12,35,12,12,35,35,35,35,35,35,35,35,35,35,35,35,35,35,35,35,45,45,45,45,45,45,45,45,
12,12,12,12,12,12,12,35,35,35,35,45,35,35,12,35,35,35,35,35,35,35,35,35,35,35,35,35,35,35,35,35,35,35,35,35,45,45,45,45,
12,12,12,12,12,12,12,35,12,12,35,45,35,35,35,35,35,35,35,35,35,35,35,35,35,35,35,35,35,35,35,35,35,35,35,35,45,45,45,45,
12,12,12,12,12,12,35,35,35,12,12,45,35,12,12,35,35,12,35,12,35,35,35,35,35,35,35,35,35,35,35,35,35,35,35,35,45,45,45,45,
12,12,12,12,35,12,35,35,35,35,35,45,12,12,12,35,35,12,35,12,35,35,35,35,35,35,35,35,35,35,35,45,45,35,35,35,45,45,45,45,
12,12,35,35,12,12,35,12,35,35,12,45,12,35,35,35,35,12,35,12,35,35,35,35,35,35,35,35,35,35,45,45,45,45,45,45,45,45,45,45,
35,35,35,35,12,35,35,35,35,35,35,45,12,35,35,35,12,12,12,35,35,35,35,35,35,35,35,35,35,45,45,45,45,45,45,45,45,45,45,45,
35,35,12,12,12,35,35,35,35,35,12,45,35,0,0,35,35,12,12,35,35,35,35,35,45,45,45,45,45,45,45,45,45,45,45,45,45,45,45,45,
35,12,12,35,35,35,35,35,35,35,35,45,35,35,12,12,12,35,45,45,45,45,45,35,45,45,45,45,45,45,45,45,45,45,45,45,45,45,45,45,
35,35,35,35,35,35,35,35,35,35,35,45,12,12,12,35,35,35,45,45,45,45,51,51,51,51,51,51,51,51,51,51,51,45,45,45,45,45,45,45,
35,35,35,35,12,12,35,12,35,35,12,35,12,35,35,35,35,35,12,12,51,51,51,51,51,51,51,51,51,51,51,51,51,45,45,45,45,45,45,45,
35,35,35,35,35,35,12,12,35,35,12,35,35,35,35,35,35,35,12,12,51,51,51,51,51,51,51,51,51,51,51,51,51,181,45,45,45,45,45,45,
35,35,35,35,35,35,35,12,35,35,12,35,35,35,35,35,35,35,12,12,51,51,51,51,51,51,51,51,51,51,51,51,51,51,45,45,45,45,45,45,
35,12,35,35,35,35,35,35,35,35,35,12,35,35,35,45,45,45,45,13,51,51,51,51,51,51,51,51,51,51,51,51,51,51,51,45,45,45,45,45,
35,12,12,35,35,35,35,35,35,35,35,35,12,35,35,45,45,45,13,12,51,51,51,51,51,51,51,51,51,51,51,51,51,51,51,45,45,45,45,45,
35,35,12,35,35,35,13,35,35,35,35,35,12,35,35,45,45,45,12,12,51,51,51,51,51,51,51,51,51,51,51,51,51,51,51,51,45,45,45,45,
35,35,12,35,12,35,35,35,35,35,35,35,35,35,35,10,45,10,10,10,51,51,51,51,51,51,51,51,51,51,51,51,51,51,51,51,45,45,35,35,
35,35,35,12,35,35,12,35,13,35,35,35,35,35,35,45,10,10,10,10,51,51,51,51,51,51,51,51,51,51,51,51,51,51,51,51,45,35,35,35,
35,35,12,35,35,13,35,35,35,35,35,35,35,35,35,45,10,10,10,10,51,51,51,51,51,51,51,51,51,51,51,51,51,51,51,51,45,45,35,35,
35,35,13,35,12,35,12,13,12,35,13,35,35,35,35,45,35,35,10,10,51,51,51,51,51,51,51,51,51,51,51,51,51,51,51,51,45,45,35,35,
35,35,35,13,35,13,35,35,35,35,35,35,35,35,35,35,35,35,35,10,51,51,51,51,51,51,51,51,51,51,51,51,51,51,51,51,45,45,35,35,
35,35,35,35,35,35,13,35,13,35,13,35,35,35,35,35,35,35,35,35,35,35,51,51,51,51,51,51,51,51,51,51,51,51,51,51,45,45,35,35,
35,35,13,35,13,35,35,35,12,35,35,35,35,35,35,35,35,35,35,35,35,35,35,51,51,51,51,51,51,51,51,51,51,51,51,51,45,45,35,35,
35,35,35,13,35,12,12,13,35,35,35,35,35,35,35,35,12,35,35,35,35,35,35,51,51,51,51,51,51,51,51,51,51,51,51,51,45,45,35,35,
35,35,35,35,35,13,35,35,35,35,12,35,12,35,35,35,35,35,12,35,35,35,35,51,51,51,51,51,51,51,51,51,51,51,51,51,51,45,45,45,
35,35,13,35,12,12,35,35,35,35,35,35,35,35,35,35,35,13,35,35,35,35,35,35,35,35,35,35,35,35,51,51,51,51,51,51,51,51,51,51,
35,35,35,12,35,35,35,35,35,35,35,12,13,35,35,35,35,35,35,35,35,35,35,35,35,35,35,35,35,35,35,51,51,51,51,51,51,51,51,51,
35,35,13,13,13,35,35,35,35,12,35,12,35,35,35,35,35,35,35,35,35,35,35,35,35,35,35,35,35,35,35,35,51,51,51,51,51,51,51,51,
35,35,35,35,35,35,35,35,35,13,35,13,35,13,35,35,35,35,35,35,35,35,35,35,35,35,35,35,35,35,35,35,51,51,51,51,51,51,51,51
</data>
 </layer>
 <objectgroup id="8" name="Object Layer 1">
  <object id="1" x="3.43716" y="0" width="244.039" height="389.702"/>
  <object id="2" x="204.511" y="1.71858" width="206.23" height="296.055"/>
  <object id="3" x="383.244" y="302.47" width="42.9646" height="41.246"/>
  <object id="4" x="405.585" y="185.607" width="25.7787" height="156.391"/>
  <object id="5" x="525.886" y="195.918" width="522.449" height="116.864"/>
  <object id="6" x="419.334" y="0" width="82.681" height="66.6312"/>
  <object id="7" x="645" y="3" width="147.667" height="45"/>
  <object id="9" x="583.333" y="124.667" width="54.6667" height="28"/>
  <object id="10" x="522" y="164.667" width="53.3333" height="24"/>
  <object id="11" x="578.667" y="162" width="130.667" height="24"/>
  <object id="13" x="640.667" y="88.6667" width="182" height="110"/>
  <object id="14" x="834" y="126.667" width="125.333" height="169.333"/>
  <object id="15" x="960" y="94" width="88.6667" height="129.333"/>
  <object id="16" x="992.667" y="63.3333" width="54.6667" height="30"/>
  <object id="17" x="1151.33" y="2" width="124" height="236"/>
  <object id="18" x="1128" y="64" width="22" height="181.333"/>
  <object id="19" x="1152" y="292.667" width="24" height="17.3333"/>
  <object id="20" x="1224.67" y="256" width="46" height="54"/>
  <object id="22" x="621.333" y="307.333" width="423.333" height="118.667"/>
  <object id="24" x="1027.33" y="332" width="50.6667" height="158.667"/>
  <object id="25" x="1078.67" y="398" width="30" height="112"/>
  <object id="26" x="1115.33" y="463.333" width="25.3333" height="54"/>
  <object id="27" x="610" y="476.667" width="248.667" height="44"/>
  <object id="28" x="906.333" y="419.333" width="205.333" height="99.3333"/>
  <object id="29" x="598" y="526" width="220" height="314"/>
  <object id="31" x="549.333" y="552" width="46.6667" height="327.333"/>
  <object id="33" x="522.667" y="701.333" width="27.3333" height="176"/>
  <object id="34" x="597.333" y="837.333" width="40" height="26"/>
  <object id="35" x="1.33333" y="470.667" width="286" height="488"/>
  <object id="36" x="290.667" y="564.667" width="96.6667" height="395.333"/>
  <object id="37" x="384.667" y="700" width="80" height="264.667"/>
  <object id="38" x="469.333" y="920.667" width="141.333" height="37.3333"/>
  <object id="39" x="587.333" y="952" width="294.667" height="4.66667"/>
  <object id="40" x="868.667" y="642.667" width="410" height="318.667"/>
  <object id="41" x="818.667" y="639.333" width="49.3333" height="191.333"/>
  <object id="42" x="1258.67" y="452.667" width="19.3333" height="191.333"/>
  <object id="43" x="1176" y="611.333" width="87.3333" height="27.3333"/>
  <object id="44" x="1053.33" y="296.667" width="54" height="98"/>
  <object id="60" x="932" y="575" width="245" height="62"/>
 </objectgroup>
 <objectgroup id="9" name="enemies" visible="0">
  <object id="45" name="enemy" x="669" y="849" width="19" height="10">
   <properties>
    <property name="deadBack" value="assets/enemy/enemy2 death back.png"/>
    <property name="deadFront" value="assets/enemy/enemy2 death front.png"/>
    <property name="deadLeft" value="assets/enemy/enemy2 death left.png"/>
    <property name="deadRight" value="assets/enemy/enemy2 death right.png"/>
    <property name="hurtBack" value="assets/enemy/enemy2 hurt back.png"/>
    <property name="hurtFront" value="assets/enemy/enemy2 hurt front.png"/>
    <property name="hurtLeft" value="assets/enemy/enemy2 hurt left.png"/>
    <property name="hurtRight" value="assets/enemy/enemy2 hurt right.png"/>
    <property name="spriteBack" value="assets/enemy/enemy2 back attack.png"/>
    <property name="spriteFront" value="assets/enemy/enemy2 front attack.png"/>
    <property name="spriteLeft" value="assets/enemy/enemy2 left attack.png"/>
    <property name="spriteRight" value="assets/enemy/enemy2 right attack.png"/>
    <property name="walkBack" value="assets/enemy/enemy2 back walk.png"/>
    <property name="walkFront" value="assets/enemy/enemy2 front walk.png"/>
    <property name="walkLeft" value="assets/enemy/enemy2 left walk.png"/>
    <property name="walkRight" value="assets/enemy/enemy2 right walk.png"/>
   </properties>
  </object>
  <object id="47" name="enemy" x="851" y="547" width="17" height="14">
   <properties>
    <property name="deadBack" value="assets/enemy/enemy2 death back.png"/>
    <property name="deadFront" value="assets/enemy/enemy2 death front.png"/>
    <property name="deadLeft" value="assets/enemy/enemy2 death left.png"/>
    <property name="deadRight" value="assets/enemy/enemy2 death right.png"/>
    <property name="hurtBack" value="assets/enemy/enemy2 hurt back.png"/>
    <property name="hurtFront" value="assets/enemy/enemy2 hurt front.png"/>
    <property name="hurtLeft" value="assets/enemy/enemy2 hurt left.png"/>
    <property name="hurtRight" value="assets/enemy/enemy2 hurt right.png"/>
    <property name="spriteBack" value="assets/enemy/enemy2 back attack.png"/>
    <property name="spriteFront" value="assets/enemy/enemy2 front attack.png"/>
    <property name="spriteLeft" value="assets/enemy/enemy2 left attack.png"/>
    <property name="spriteRight" value="assets/enemy/enemy2 right attack.png"/>
    <property name="walkBack" value="assets/enemy/enemy2 back walk.png"/>
    <property name="walkFront" value="assets/enemy/enemy2 front walk.png"/>
    <property name="walkLeft" value="assets/enemy/enemy2 left walk.png"/>
    <property name="walkRight" value="assets/enemy/enemy2 right walk.png"/>
   </properties>
  </object>
  <object id="48" name="enemy" x="1165" y="351" width="20" height="11">
   <properties>
    <property name="deadBack" value="assets/enemy/enemy2 death back.png"/>
    <property name="deadFront" value="assets/enemy/enemy2 death front.png"/>
    <property name="deadLeft" value="assets/enemy/enemy2 death left.png"/>
    <property name="deadRight" value="assets/enemy/enemy2 death right.png"/>
    <property name="hurtBack" value="assets/enemy/enemy2 hurt back.png"/>
    <property name="hurtFront" value="assets/enemy/enemy2 hurt front.png"/>
    <property name="hurtLeft" value="assets/enemy/enemy2 hurt left.png"/>
    <property name="hurtRight" value="assets/enemy/enemy2 hurt right.png"/>
    <property name="spriteBack" value="assets/enemy/enemy2 back attack.png"/>
    <property name="spriteFront" value="assets/enemy/enemy2 front attack.png"/>
    <property name="spriteLeft" value="assets/enemy/enemy2 left attack.png"/>
    <property name="spriteRight" value="assets/enemy/enemy2 right attack.png"/>
    <property name="walkBack" value="assets/enemy/enemy2 back walk.png"/>
    <property name="walkFront" value="assets/enemy/enemy2 front walk.png"/>
    <property name="walkLeft" value="assets/enemy/enemy2 left walk.png"/>
    <property name="walkRight" value="assets/enemy/enemy2 right walk.png"/>
   </properties>
  </object>
  <object id="49" name="enemy" x="845" y="66" width="20" height="12">
   <properties>
    <property name="deadBack" value="assets/enemy/enemy2 death back.png"/>
    <property name="deadFront" value="assets/enemy/enemy2 death front.png"/>
    <property name="deadLeft" value="assets/enemy/enemy2 death left.png"/>
    <property name="deadRight" value="assets/enemy/enemy2 death right.png"/>
    <property name="hurtBack" value="assets/enemy/enemy2 hurt back.png"/>
    <property name="hurtFront" value="assets/enemy/enemy2 hurt front.png"/>
    <property name="hurtLeft" value="assets/enemy/enemy2 hurt left.png"/>
    <property name="hurtRight" value="assets/enemy/enemy2 hurt right.png"/>
    <property name="spriteBack" value="assets/enemy/enemy2 back attack.png"/>
    <property name="spriteFront" value="assets/enemy/enemy2 front attack.png"/>
    <property name="spriteLeft" value="assets/enemy/enemy2 left attack.png"/>
    <property name="spriteRight" value="assets/enemy/enemy2 right attack.png"/>
    <property name="walkBack" value="assets/enemy/enemy2 back walk.png"/>
    <property name="walkFront" value="assets/enemy/enemy2 front walk.png"/>
    <property name="walkLeft" value="assets/enemy/enemy2 left walk.png"/>
    <property name="walkRight" value="assets/enemy/enemy2 right walk.png"/>
   </properties>
  </object>
 </objectgroup>
 <objectgroup id="10" name="professor" visible="0">
  <object id="50" name="professor" x="309" y="320" width="20" height="15">
   <properties>
    <property name="idle_left" value="assets/professor/idle_left.png"/>
    <property name="idle_right" value="assets/professor/idle_right.png"/>
    <property name="walkLeft" value="assets/professor/left.png"/>
    <property name="walkRight" value="assets/professor/right.png"/>
   </properties>
  </object>
  <object id="54" name="slime1" x="484" y="429" width="16" height="13">
   <properties>
    <property name="deadBack" value="assets/enemy/slime2 death back.png"/>
    <property name="deadFront" value="assets/enemy/slime2 death front.png"/>
    <property name="deadLeft" value="assets/enemy/slime2 death left.png"/>
    <property name="deadRight" value="assets/enemy/slime2 death right.png"/>
    <property name="hurtBack" value="assets/enemy/slime2 hurt back.png"/>
    <property name="hurtFront" value="assets/enemy/slime2 hurt front.png"/>
    <property name="hurtLeft" value="assets/enemy/slime2 hurt left.png"/>
    <property name="hurtRight" value="assets/enemy/slime2 hurt right.png"/>
    <property name="spriteBack" value="assets/enemy/Slime2_Attack_Back.png"/>
    <property name="spriteFront" value="assets/enemy/Slime2_Attack_Front.png"/>
    <property name="spriteLeft" value="assets/enemy/Slime2_Attack_Left.png"/>
    <property name="spriteRight" value="assets/enemy/Slime2_Attack_Right.png"/>
    <property name="walkBack" value="assets/enemy/Slime2_back.png"/>
    <property name="walkFront" value="assets/enemy/Slime2_front.png"/>
    <property name="walkLeft" value="assets/enemy/Slime2_left.png"/>
    <property name="walkRight" value="assets/enemy/Slime2_right.png"/>
   </properties>
  </object>
 </objectgroup>
 <objectgroup id="12" name="treasure">
  <object id="55" name="treasure1" x="787" y="898" width="22" height="14">
   <properties>
    <property name="front" value="assets/treasure/treasure chest.png"/>
    <property name="open" value="assets/treasure/treasure chest.png"/>
   </properties>
  </object>
  <object id="56" name="treasure4" x="1173" y="395" width="19" height="14">
   <properties>
    <property name="front" value="assets/treasure/treasure chest.png"/>
    <property name="open" value="assets/treasure/treasure chest.png"/>
   </properties>
  </object>
  <object id="57" name="treasure2" x="859" y="596" width="22" height="13">
   <properties>
    <property name="front" value="assets/treasure/treasure chest.png"/>
    <property name="open" value="assets/treasure/treasure chest.png"/>
   </properties>
  </object>
  <object id="58" name="treasure3" x="912" y="87" width="18" height="12">
   <properties>
    <property name="front" value="assets/treasure/treasure chest.png"/>
    <property name="open" value="assets/treasure/treasure chest.png"/>
   </properties>
  </object>
 </objectgroup>
 <objectgroup id="13" name="explosion" visible="0">
  <object id="59" name="explosion" x="860" y="600" width="19" height="13">
   <properties>
    <property name="explosion" value="assets/explosion/explosion.png"/>
   </properties>
  </object>
 </objectgroup>
 <layer id="2" name="Tile Layer 2" width="40" height="30">
  <data encoding="csv">
134,135,136,131,132,133,131,132,133,0,44,0,45,45,45,45,45,45,45,45,45,45,45,45,45,45,45,45,45,45,45,45,0,0,0,263,53,54,55,0,
160,161,162,157,158,159,157,158,159,0,44,0,45,45,45,45,45,45,45,45,45,45,45,45,45,45,45,45,45,45,45,45,288,239,238,289,79,80,81,0,
186,187,188,183,184,185,183,184,185,0,44,0,45,45,45,45,45,45,45,45,45,45,45,45,45,45,45,45,45,45,45,315,314,314,314,315,105,106,107,0,
212,213,214,209,210,211,209,210,211,0,44,0,45,45,45,45,45,45,45,45,45,45,45,45,45,45,45,45,45,45,315,315,340,340,340,341,0,0,0,0,
0,0,0,0,0,0,0,0,0,0,44,0,45,45,45,45,45,45,45,45,45,45,45,45,45,45,313,313,314,315,315,341,340,340,340,341,0,0,0,0,
0,0,0,0,0,0,0,0,0,0,44,0,45,45,45,45,45,45,45,45,314,315,314,314,314,315,313,313,314,315,341,367,366,366,366,367,0,0,0,0,
0,0,0,0,0,0,0,0,0,0,44,0,45,45,45,45,45,314,0,314,314,314,340,340,340,341,339,339,340,341,367,0,0,44,46,7,8,0,0,0,
0,0,0,0,0,0,0,0,0,0,44,0,45,45,45,45,45,313,0,340,340,340,340,340,340,341,340,340,366,367,4,30,0,44,46,33,34,0,0,0,
30,0,30,0,0,0,30,0,61,62,44,0,45,45,45,45,45,313,0,366,366,366,366,366,366,367,0,0,0,0,30,4,0,70,71,68,68,17,7,8,
30,30,30,30,30,30,30,36,36,36,44,0,45,45,45,45,45,313,0,0,225,0,76,0,182,0,0,0,0,0,0,0,0,0,0,0,11,43,33,34,
56,57,58,0,0,0,38,36,18,19,45,0,45,45,45,45,45,45,0,71,251,25,130,0,0,0,0,0,0,0,0,0,129,286,0,18,19,124,0,0,
82,83,84,0,0,0,38,36,44,45,45,45,45,45,45,45,45,45,46,180,277,0,0,0,0,0,0,0,0,0,0,0,0,52,0,0,0,0,0,0,
108,109,110,11,0,0,61,62,44,45,45,45,45,45,45,45,45,45,46,180,0,0,0,0,0,0,0,0,0,0,0,0,0,259,156,0,0,0,0,0,
19,19,19,19,19,19,19,19,45,45,45,45,45,45,45,45,45,45,46,336,0,0,0,0,0,0,0,0,0,0,0,0,0,0,182,0,0,0,0,0,
71,71,71,71,71,71,71,71,71,45,45,45,45,45,45,0,0,0,0,16,198,198,198,198,198,198,198,147,0,0,0,0,0,0,0,156,0,0,0,0,
36,36,36,61,62,112,38,38,38,44,45,45,45,45,45,0,0,0,46,284,0,0,0,0,0,0,0,173,0,0,0,0,0,0,0,182,0,0,0,0,
0,0,0,0,137,138,139,0,38,44,45,45,45,45,45,0,0,97,72,180,0,0,0,0,0,0,0,173,0,0,0,0,0,0,0,259,26,0,45,0,
0,0,0,0,0,0,0,0,0,70,71,71,45,45,45,45,0,72,0,310,0,0,0,0,0,0,148,148,197,198,198,0,0,0,0,0,52,0,45,45,
37,0,37,0,0,0,0,0,0,0,0,0,44,45,45,0,46,0,0,310,0,0,0,0,0,0,148,148,148,0,0,0,0,0,0,0,52,45,45,45,
63,0,63,0,0,0,56,57,58,0,0,0,44,45,45,0,46,0,0,310,0,0,0,0,0,0,148,148,148,0,0,0,0,0,0,0,52,0,45,45,
0,0,0,37,0,0,82,83,84,0,0,0,44,45,45,0,46,0,0,310,0,0,0,0,0,0,0,0,0,0,0,0,0,0,0,0,52,4,45,45,
0,0,0,63,0,0,108,109,110,0,0,0,70,71,0,45,72,0,0,310,0,0,0,0,0,0,0,0,0,0,0,0,0,0,0,0,52,4,45,45,
37,0,0,134,135,136,134,135,136,0,0,0,0,0,0,41,0,0,32,76,77,77,104,0,0,0,0,0,0,0,0,0,0,0,0,0,52,0,45,45,
63,0,0,160,161,162,160,161,162,21,74,74,74,74,74,74,74,74,74,74,74,74,50,0,0,0,0,0,0,0,0,0,0,0,0,0,52,0,45,45,
0,0,0,186,187,188,186,187,188,47,0,0,0,0,0,0,0,0,0,0,0,0,50,0,0,0,0,0,0,0,0,0,0,0,0,0,52,4,45,45,
14,14,14,212,213,214,212,213,214,47,0,0,0,0,0,0,0,0,0,0,0,0,50,0,0,0,0,0,0,0,0,0,0,0,0,0,259,25,25,25,
40,40,40,14,0,14,21,74,74,75,0,0,0,0,0,0,0,0,0,12,0,0,76,77,77,207,207,207,207,207,104,0,0,0,0,0,0,0,0,0,
14,0,14,40,14,40,47,0,0,0,0,0,0,0,0,0,0,0,32,0,0,0,0,0,12,0,0,0,0,0,206,104,0,0,0,0,0,0,0,0,
40,14,40,14,40,14,47,30,0,30,0,0,0,0,0,0,0,0,0,0,45,45,45,45,45,45,0,0,0,0,0,180,0,0,0,0,0,0,0,0,
0,40,0,40,0,40,47,30,30,30,30,0,0,0,0,0,0,61,62,0,0,0,0,0,0,0,0,0,30,0,30,180,0,0,0,0,0,0,0,0
</data>
 </layer>
 <layer id="5" name="Tile Layer 3" width="40" height="30">
  <data encoding="csv">
0,0,0,0,0,0,0,0,0,0,0,0,0,261,0,0,0,0,0,113,309,0,180,181,182,0,0,0,0,0,0,0,0,0,0,0,0,0,0,0,
0,0,0,0,0,0,0,0,0,0,0,0,0,261,0,0,0,0,0,0,309,0,180,181,182,0,0,0,0,0,238,288,0,0,0,0,0,0,0,0,
0,131,132,133,131,132,133,134,135,136,0,0,0,261,0,0,0,0,0,0,309,0,180,181,182,0,0,0,0,238,289,0,0,194,196,0,0,0,56,57,
0,157,158,159,157,158,159,160,161,162,0,0,0,261,0,0,0,0,0,0,309,0,180,181,182,238,288,288,288,289,0,0,0,220,222,0,61,62,82,83,
0,183,184,185,183,184,185,186,187,188,0,0,0,261,0,0,0,238,288,288,309,288,180,181,182,289,0,0,0,0,0,0,0,220,222,0,0,0,108,109,
0,209,210,211,209,210,211,212,213,214,0,0,0,287,0,0,288,289,314,314,225,314,304,305,306,0,0,0,0,0,0,0,0,246,248,0,0,0,0,114,
0,0,0,0,0,0,0,0,0,0,163,164,165,313,194,196,315,315,340,314,225,314,330,331,332,0,0,140,0,0,0,61,62,0,0,0,0,0,0,0,
0,0,0,0,0,0,0,0,0,0,189,190,191,339,220,222,341,315,366,140,251,340,330,331,332,0,92,166,0,92,0,0,0,0,0,0,0,0,0,0,
0,0,0,30,0,30,0,0,0,0,215,216,217,313,194,196,315,341,366,166,250,366,330,331,332,0,118,0,0,118,0,0,0,0,123,0,0,0,0,0,
0,0,0,0,0,0,0,0,0,0,241,242,243,339,220,222,341,367,0,0,225,0,356,357,358,155,155,155,155,155,155,155,156,0,0,0,0,0,0,0,
0,0,0,0,0,0,0,0,0,0,124,0,0,365,246,248,367,0,97,0,0,0,0,0,0,0,0,0,0,0,0,0,0,0,0,0,0,123,19,20,
0,0,0,0,111,112,113,0,0,0,0,0,0,92,0,0,0,0,0,0,0,0,0,0,0,0,0,0,0,0,0,0,0,0,0,44,0,0,0,46,
0,0,0,0,137,138,139,0,0,0,0,0,0,118,0,0,0,0,0,0,0,0,0,0,0,0,0,0,0,0,0,0,0,0,0,44,0,0,0,46,
0,0,0,4,30,0,0,0,124,0,0,0,0,0,0,0,0,0,0,0,0,0,0,0,0,0,0,0,0,0,0,0,0,0,0,70,98,0,97,72,
0,0,0,30,4,0,0,0,0,98,0,0,0,0,0,0,0,0,97,0,0,0,0,0,0,0,0,0,0,0,0,0,0,0,259,0,44,0,46,0,
0,0,0,0,0,0,0,0,0,0,0,0,0,0,0,0,0,0,0,0,0,0,0,0,0,0,0,0,0,0,0,0,0,0,0,0,44,0,46,0,
131,132,133,0,0,0,0,0,0,0,0,0,0,0,0,0,0,0,0,0,0,0,0,0,0,0,0,0,0,0,0,0,0,0,0,0,0,0,46,0,
157,158,159,0,0,0,0,0,0,0,59,60,0,0,0,0,97,0,0,0,0,0,0,0,0,0,0,0,0,0,0,198,198,198,198,198,198,0,46,0,
183,184,185,131,132,133,0,0,0,0,85,86,0,0,0,0,0,0,0,0,0,0,0,0,0,0,0,0,0,0,0,0,0,0,0,0,0,70,72,0,
209,210,211,157,158,159,0,0,56,57,58,0,0,0,0,0,0,0,0,0,0,0,0,0,0,0,0,0,0,0,0,0,0,0,0,0,0,0,134,135,
131,132,133,183,184,185,0,0,82,83,84,0,0,0,0,0,0,0,0,0,0,0,0,0,0,0,0,0,0,0,0,0,0,0,0,0,0,0,160,161,
157,158,159,209,210,211,0,0,108,109,110,0,0,0,71,98,0,0,0,0,0,0,0,0,0,0,0,0,0,0,0,0,0,0,0,0,0,134,186,187,
183,184,185,0,0,0,0,0,0,0,131,132,133,0,0,0,0,0,0,0,0,0,0,0,0,0,0,0,0,0,0,0,0,0,0,0,0,160,212,213,
209,210,211,0,0,0,0,0,0,0,157,158,159,0,0,171,0,0,0,0,0,0,0,0,0,0,0,0,0,0,0,0,0,0,0,0,0,186,187,188,
0,0,0,0,0,0,0,0,0,0,183,184,185,39,39,41,59,60,0,0,0,266,0,0,0,0,0,0,0,0,0,0,0,0,0,0,0,212,213,214,
0,0,0,30,0,30,30,134,135,136,209,210,211,0,39,41,85,86,0,0,266,292,0,0,0,0,0,0,0,0,0,0,0,0,0,0,0,0,0,0,
0,14,0,0,30,0,0,160,161,162,53,54,55,0,37,41,0,0,0,266,292,292,0,0,0,0,0,14,134,135,136,0,0,0,0,0,0,0,0,0,
0,40,0,0,0,0,0,186,187,188,79,80,81,0,63,41,36,36,0,292,18,19,19,19,19,19,20,40,160,161,162,0,0,0,0,0,0,0,0,0,
14,0,14,0,14,0,0,212,213,214,105,106,107,0,32,67,68,68,68,95,124,0,0,0,0,0,46,0,186,187,188,0,0,0,0,0,0,0,0,0,
40,0,40,0,40,0,0,0,0,0,0,0,0,0,0,0,0,0,0,70,71,71,71,71,71,71,72,0,212,213,214,0,0,0,0,0,0,0,0,0
</data>
 </layer>
 <objectgroup id="11" name="slime1" visible="0">
  <object id="51" name="slime1" x="526" y="73" width="16" height="12">
   <properties>
    <property name="deadBack" value="assets/enemy/slime2 death back.png"/>
    <property name="deadFront" value="assets/enemy/slime2 death front.png"/>
    <property name="deadLeft" value="assets/enemy/slime2 death left.png"/>
    <property name="deadRight" value="assets/enemy/slime2 death right.png"/>
    <property name="hurtBack" value="assets/enemy/slime2 hurt back.png"/>
    <property name="hurtFront" value="assets/enemy/slime2 hurt front.png"/>
    <property name="hurtLeft" value="assets/enemy/slime2 hurt left.png"/>
    <property name="hurtRight" value="assets/enemy/slime2 hurt right.png"/>
    <property name="spriteBack" value="assets/enemy/Slime2_Attack_Back.png"/>
    <property name="spriteFront" value="assets/enemy/Slime2_Attack_Front.png"/>
    <property name="spriteLeft" value="assets/enemy/Slime2_Attack_Left.png"/>
    <property name="spriteRight" value="assets/enemy/Slime2_Attack_Right.png"/>
    <property name="walkBack" value="assets/enemy/Slime2_back.png"/>
    <property name="walkFront" value="assets/enemy/Slime2_front.png"/>
    <property name="walkLeft" value="assets/enemy/Slime2_left.png"/>
    <property name="walkRight" value="assets/enemy/Slime2_right.png"/>
   </properties>
  </object>
  <object id="52" name="slime1" x="1027" y="536" width="15" height="12">
   <properties>
    <property name="deadBack" value="assets/enemy/slime2 death back.png"/>
    <property name="deadFront" value="assets/enemy/slime2 death front.png"/>
    <property name="deadLeft" value="assets/enemy/slime2 death left.png"/>
    <property name="deatRight" value="assets/enemy/slime2 death right.png"/>
    <property name="hurtBack" value="assets/enemy/slime2 hurt back.png"/>
    <property name="hurtFront" value="assets/enemy/slime2 hurt front.png"/>
    <property name="hurtLeft" value="assets/enemy/slime2 hurt left.png"/>
    <property name="hurtRight" value="assets/enemy/slime2 hurt right.png"/>
    <property name="spriteBack" value="assets/enemy/Slime2_Attack_Back.png"/>
    <property name="spriteFront" value="assets/enemy/Slime2_Attack_Front.png"/>
    <property name="spriteLeft" value="assets/enemy/Slime2_Attack_Left.png"/>
    <property name="spriteRight" value="assets/enemy/Slime2_Attack_Right.png"/>
    <property name="walkBack" value="assets/enemy/Slime2_back.png"/>
    <property name="walkFront" value="assets/enemy/Slime2_front.png"/>
    <property name="walkLeft" value="assets/enemy/Slime2_left.png"/>
    <property name="walkRight" value="assets/enemy/Slime2_right.png"/>
   </properties>
  </object>
  <object id="53" name="slime1" x="422" y="595" width="17" height="14">
   <properties>
    <property name="deadBack" value="assets/enemy/slime2 death back.png"/>
    <property name="deadFront" value="assets/enemy/slime2 death front.png"/>
    <property name="deadLeft" value="assets/enemy/slime2 death left.png"/>
    <property name="deadRight" value="assets/enemy/slime2 death right.png"/>
    <property name="hurtBack" value="assets/enemy/slime2 hurt back.png"/>
    <property name="hurtFront" value="assets/enemy/slime2 hurt front.png"/>
    <property name="hurtLeft" value="assets/enemy/slime2 hurt left.png"/>
    <property name="hurtRight" value="assets/enemy/slime2 hurt right.png"/>
    <property name="spriteBack" value="assets/enemy/Slime2_Attack_Back.png"/>
    <property name="spriteFront" value="assets/enemy/Slime2_Attack_Front.png"/>
    <property name="spriteLeft" value="assets/enemy/Slime2_Attack_Left.png"/>
    <property name="spriteRight" value="assets/enemy/Slime2_Attack_Right.png"/>
    <property name="walkBack" value="assets/enemy/Slime2_back.png"/>
    <property name="walkFront" value="assets/enemy/Slime2_front.png"/>
    <property name="walkLeft" value="assets/enemy/Slime2_left.png"/>
    <property name="walkRight" value="assets/enemy/Slime2_right.png"/>
   </properties>
  </object>
 </objectgroup>
 <layer id="6" name="Tile Layer 4" width="40" height="30">
  <data encoding="csv">
0,0,0,0,0,0,0,0,0,0,0,0,0,53,54,55,0,0,0,0,0,0,0,0,0,0,0,0,0,0,0,0,0,0,0,0,0,0,0,0,
0,0,0,0,0,0,0,0,0,32,0,0,0,79,80,81,0,0,0,0,0,0,0,0,0,0,0,0,0,0,0,0,0,0,0,0,0,0,0,0,
0,0,0,0,0,0,0,0,0,0,0,0,0,105,106,107,0,0,0,0,146,0,146,146,146,0,0,0,0,0,0,0,0,0,0,0,0,0,0,0,
0,0,0,0,0,0,0,0,0,0,0,0,0,0,0,0,0,0,0,0,0,0,0,0,0,0,0,0,0,0,0,0,0,0,0,0,0,0,0,0,
0,0,0,0,0,0,0,0,0,0,0,0,0,0,0,0,0,0,61,62,0,0,0,0,0,0,0,0,0,0,0,0,0,0,0,0,56,57,58,0,
134,135,136,134,135,136,134,135,136,0,0,0,0,0,0,0,11,11,0,0,0,0,0,0,0,0,0,0,0,0,0,0,0,0,0,0,82,83,84,0,
160,161,162,160,161,162,160,161,162,0,163,164,165,0,0,0,0,0,0,0,0,0,0,0,0,0,0,0,0,0,0,0,0,0,0,0,108,109,110,0,
186,187,188,186,187,188,186,187,188,32,189,190,191,0,0,0,0,0,0,140,0,0,0,0,0,0,0,0,0,0,0,0,0,0,0,0,0,0,0,0,
212,213,214,212,213,214,212,213,214,0,215,216,217,0,0,0,0,0,92,166,0,0,0,0,0,0,0,0,0,0,0,0,0,0,0,0,0,0,0,0,
0,0,0,0,0,0,0,0,0,0,241,242,218,0,0,0,0,0,118,0,0,0,0,0,0,0,0,0,0,0,0,0,0,0,0,0,0,0,0,0,
0,0,0,0,0,0,0,0,0,0,0,0,244,0,0,0,0,0,0,0,0,0,0,0,0,0,0,0,0,0,0,0,0,0,0,0,0,0,0,0,
0,0,0,0,0,0,0,0,0,0,0,0,0,0,0,0,0,0,0,0,0,0,0,0,0,0,0,0,0,0,0,0,0,0,0,0,0,0,0,0,
0,0,267,0,32,0,0,0,0,0,0,0,0,0,0,0,0,0,0,0,0,0,0,0,0,0,0,0,0,0,0,0,0,0,0,0,0,0,0,0,
0,0,0,0,0,0,0,0,0,0,0,0,0,0,0,0,0,0,0,0,0,0,0,0,0,0,0,0,0,0,0,0,0,0,0,0,0,0,0,0,
0,0,0,0,0,0,0,0,0,0,0,0,0,0,0,0,0,0,123,0,0,0,0,0,0,0,0,0,0,0,0,0,0,0,0,0,0,0,0,0,
0,0,0,0,0,0,0,0,0,0,0,0,0,0,0,0,0,0,0,0,0,0,0,0,0,0,0,0,0,0,0,0,0,0,0,0,0,0,0,0,
0,0,0,0,0,0,0,0,0,0,0,0,0,0,0,0,0,0,0,0,0,0,0,0,0,0,0,0,0,0,0,0,0,0,0,0,0,0,0,0,
0,0,0,0,0,0,0,56,57,58,0,0,0,0,0,0,0,37,0,0,0,0,0,0,0,0,0,0,0,0,0,0,0,0,0,0,0,0,0,0,
0,0,0,0,0,0,0,82,83,84,0,0,0,0,0,0,0,63,0,0,0,0,0,0,0,0,0,0,0,0,0,0,0,0,0,0,0,0,0,0,
0,0,0,0,0,0,0,108,109,110,0,37,0,0,0,0,0,37,0,0,0,0,0,0,0,0,0,0,0,0,0,0,0,0,0,0,0,0,0,0,
0,0,0,0,0,37,0,0,0,0,0,63,0,0,0,0,0,63,0,0,0,0,0,0,0,0,0,0,0,0,0,0,0,0,0,0,0,0,0,0,
0,0,0,0,0,63,0,0,0,0,0,32,0,0,0,97,0,0,0,0,0,0,0,0,0,0,0,0,0,0,0,0,0,0,0,0,0,134,135,136,
0,0,0,0,0,0,0,0,0,0,0,0,0,64,64,0,64,64,0,0,0,0,0,0,0,0,0,0,0,0,0,0,0,0,0,0,0,160,161,162,
37,37,37,0,0,0,0,0,0,0,0,0,0,0,0,0,0,0,0,0,0,0,0,0,0,0,0,0,0,0,0,0,0,0,0,0,0,186,187,188,
63,63,63,0,0,0,0,0,0,0,0,0,0,0,0,0,0,0,0,0,0,0,0,0,0,0,0,0,0,0,0,0,0,0,0,0,0,212,213,214,
0,0,0,0,0,0,0,0,0,0,0,0,0,0,0,0,37,0,0,0,0,266,0,0,0,0,0,0,0,0,0,0,0,0,0,0,0,0,0,0,
0,0,0,0,0,0,0,0,0,0,0,0,0,0,0,0,63,0,0,0,0,292,0,0,0,0,0,0,0,0,0,0,0,0,0,0,0,0,0,0,
0,0,0,0,0,0,0,0,0,0,0,53,54,55,0,0,0,0,0,0,0,0,0,0,0,0,0,14,0,0,0,0,0,0,0,0,0,0,0,0,
0,0,0,0,0,0,0,0,0,0,0,79,80,81,0,0,0,0,0,0,0,0,0,0,0,0,0,40,0,0,0,0,0,0,0,0,0,0,0,0,
0,0,0,0,0,0,0,0,0,0,0,105,106,107,0,64,64,0,0,0,0,0,0,0,0,0,0,38,0,0,0,0,0,0,0,0,0,0,0,0
</data>
 </layer>
</map>
