<?xml version="1.0" encoding="UTF-8"?>
<map version="1.10" tiledversion="1.11.2" orientation="orthogonal" renderorder="right-down" width="40" height="30" tilewidth="32" tileheight="32" infinite="0" nextlayerid="12" nextobjectid="82">
 <editorsettings>
  <export target="map4.tmj" format="json"/>
 </editorsettings>
 <tileset firstgid="1" source="../../../../../../../OneDrive/Desktop/map132.tsx"/>
 <layer id="1" name="Tile Layer 1" width="40" height="30">
  <data encoding="csv">
338,338,338,338,338,338,338,338,338,338,338,338,338,338,338,338,338,338,338,338,115,244,244,850,851,850,851,850,851,850,851,850,851,850,851,850,851,850,850,851,
338,338,338,338,338,338,338,965,966,338,338,338,338,338,338,338,338,338,338,338,115,745,746,850,850,850,851,850,851,338,338,850,851,850,851,850,851,338,850,851,
338,338,338,338,338,338,338,338,338,338,338,338,338,338,338,338,338,338,338,338,115,300,300,850,851,851,850,851,851,338,338,338,338,338,338,850,851,338,850,851,
338,338,338,338,338,338,338,338,338,338,338,338,338,338,338,338,338,338,338,338,115,300,300,113,338,850,851,850,850,850,851,338,338,338,338,338,338,338,850,851,
338,338,798,799,338,965,966,338,338,338,338,338,338,338,338,338,338,1205,1205,1205,115,801,802,113,338,338,338,338,850,850,850,850,851,338,338,338,338,338,850,851,
338,338,798,799,338,338,338,338,338,338,338,338,338,338,152,338,338,1205,1205,1205,115,244,244,113,338,338,338,338,338,850,851,850,851,338,338,338,338,338,338,338,
798,799,798,799,338,798,799,338,338,338,338,338,338,338,1093,338,338,1205,1205,1205,115,244,244,113,338,338,338,338,338,338,338,338,338,338,338,338,338,338,338,338,
798,799,798,798,798,798,799,114,1206,1206,1206,1206,1206,1206,1206,1206,1206,1206,1206,1206,1206,244,244,1206,1206,338,338,338,944,944,338,338,944,944,944,944,944,944,944,944,
114,114,741,1133,1134,744,114,114,1206,338,338,338,338,338,338,338,338,338,338,338,115,244,244,113,1206,1206,338,338,944,944,338,338,338,338,338,338,338,597,944,944,
338,114,797,798,799,800,114,338,1206,338,338,338,338,338,338,338,338,338,338,338,244,244,57,338,338,1206,338,338,944,944,338,338,338,338,338,338,338,597,944,944,
338,114,853,854,855,856,114,338,1206,338,338,338,338,122,122,122,122,338,338,338,244,244,113,338,338,1206,338,338,944,944,338,338,338,338,338,338,338,338,944,944,
338,338,909,910,911,912,338,338,1206,338,338,338,338,122,122,122,122,338,338,338,244,244,113,338,114,1206,338,338,944,944,338,338,338,338,338,338,338,338,944,944,
114,114,114,114,114,114,114,114,1206,338,338,925,338,122,122,122,122,338,338,244,244,57,338,338,338,1206,338,338,944,944,944,944,338,338,338,338,338,338,944,944,
114,114,114,114,114,114,114,114,1206,338,58,58,58,58,58,1206,58,338,244,244,244,113,338,338,338,1206,338,338,944,944,944,944,944,944,944,944,944,944,944,944,
114,114,114,114,114,114,114,114,1206,338,338,338,338,338,338,1206,338,244,244,244,57,338,338,338,338,1206,338,338,944,944,944,944,944,944,944,944,944,944,944,944,
1206,1206,1206,1206,1206,1206,1206,1206,1206,1206,1206,1206,1206,1206,1206,1206,244,244,244,57,338,338,338,338,114,1206,338,338,338,338,338,338,338,338,1206,1206,338,338,338,338,
338,338,338,338,338,338,338,338,338,338,338,338,338,244,244,244,244,244,244,244,338,338,338,338,338,1206,338,338,338,338,338,338,338,338,1206,1206,338,338,338,338,
338,338,338,338,338,338,338,338,338,244,244,244,244,244,244,244,57,1206,244,244,244,1206,1206,1206,1206,1206,1206,1206,1206,1206,1206,1206,1206,1206,1206,1206,338,338,338,338,
244,244,244,244,244,244,244,244,244,244,244,244,57,282,282,282,338,1206,59,244,244,244,338,338,338,338,338,1206,1206,1206,1206,1206,1206,1206,1206,1206,338,338,338,338,
244,244,244,244,244,244,244,244,244,57,282,282,338,338,338,338,338,1206,1206,59,244,244,244,113,338,338,338,83,84,84,617,618,617,618,617,618,617,841,841,841,
282,282,282,282,282,282,282,282,282,338,338,338,338,114,114,338,114,114,1206,115,244,244,244,113,338,338,338,81,81,82,673,674,673,673,673,673,673,1121,1121,1122,
887,887,887,887,887,887,887,887,887,887,887,887,887,887,887,887,887,338,1206,115,244,244,244,113,338,338,338,81,81,82,289,289,289,289,289,289,289,289,1121,1122,
244,244,244,244,244,887,266,887,887,887,266,887,266,266,266,266,266,338,1206,338,59,244,244,113,338,338,969,970,969,970,969,969,969,969,969,969,969,969,969,970,
244,244,244,244,244,887,266,887,762,887,266,887,266,266,266,266,266,114,1206,1206,338,59,244,338,113,338,244,244,244,244,126,126,126,126,126,126,244,244,244,244,
244,244,244,244,244,887,266,887,887,887,266,887,266,266,266,266,266,338,114,1206,338,115,745,746,113,338,244,126,126,126,126,126,126,126,126,126,126,126,244,244,
244,244,244,244,244,887,266,266,266,266,266,887,266,266,266,266,266,338,338,1206,338,115,300,300,113,338,244,126,126,126,126,126,126,126,126,126,126,126,126,244,
244,244,244,244,244,887,266,266,266,266,266,887,266,266,1208,266,266,338,114,1206,338,115,300,300,113,338,244,126,126,126,126,126,126,126,126,126,126,126,969,244,
244,244,244,244,244,887,887,887,887,887,887,887,887,887,887,887,887,114,338,1206,338,115,803,804,113,338,244,969,126,126,126,126,126,126,126,126,126,126,244,244,
244,244,244,244,244,887,887,887,887,887,114,114,887,887,887,887,887,1206,1206,1206,338,338,59,244,244,113,244,244,126,126,126,126,126,126,126,126,126,969,244,244,
244,244,244,244,244,887,887,887,887,887,114,114,887,887,887,887,887,338,338,114,338,338,115,244,244,113,244,244,969,969,969,969,969,969,969,969,969,244,244,244
</data>
 </layer>
 <layer id="2" name="Tile Layer 2" width="40" height="30">
  <data encoding="csv">
967,968,968,967,968,967,968,967,968,967,968,744,0,0,0,0,0,0,0,0,0,0,0,0,0,0,0,0,737,738,739,740,737,738,739,740,737,738,739,740,
797,798,799,798,798,798,799,800,797,798,799,800,0,0,0,0,0,0,1135,1136,0,0,0,0,0,0,0,0,793,794,795,796,793,794,795,796,793,794,795,796,
798,854,855,856,853,854,855,856,853,854,855,856,0,0,0,263,264,0,1191,1192,0,0,0,0,0,0,0,0,849,850,851,852,849,850,851,852,849,850,851,852,
798,798,744,741,1079,1079,741,742,743,744,911,912,0,0,0,375,376,0,0,0,0,0,0,0,849,850,851,852,0,0,0,908,905,906,907,908,905,906,907,908,
798,799,800,797,798,799,797,798,799,800,0,0,0,0,0,431,432,623,622,624,0,0,0,1073,1074,906,907,908,0,0,0,0,0,0,0,0,0,0,0,0,
854,855,856,853,967,967,967,968,855,856,0,0,0,0,0,869,871,621,0,678,0,0,0,1129,1130,1073,1074,0,0,0,0,0,0,0,0,0,0,0,0,0,
967,967,968,909,798,967,965,966,911,912,1079,1079,1079,1079,0,925,647,679,677,680,0,0,0,1185,1186,1129,1130,661,662,662,207,208,662,662,662,662,662,662,662,662,
741,742,743,744,741,742,743,800,397,566,566,566,566,566,566,566,566,566,510,566,566,0,0,566,399,1185,1186,717,885,0,319,320,0,0,0,0,0,0,0,0,
797,798,799,800,797,798,799,800,456,1079,1079,263,264,0,0,0,0,0,0,0,0,0,0,0,509,399,0,717,0,0,1103,1104,597,597,597,597,597,597,93,0,
853,854,855,856,853,854,855,856,456,1023,1023,375,376,862,862,862,862,863,0,0,972,0,0,0,0,456,0,717,0,0,1109,1111,597,597,597,597,597,597,149,0,
909,910,911,912,909,910,911,912,456,1023,0,431,432,623,622,622,624,114,0,0,0,0,0,0,0,456,0,717,0,0,1165,1167,1109,1109,1109,266,1109,1109,1112,0,
0,0,909,910,911,912,0,0,456,1023,152,813,815,621,0,0,678,114,0,0,0,0,0,0,0,456,0,717,0,0,1277,1278,1165,1165,1165,266,1165,1165,1168,0,
0,0,0,0,0,0,0,0,456,0,1093,925,647,621,677,677,680,114,0,914,0,0,0,0,0,456,0,717,0,0,0,0,1277,1278,1279,266,1277,1278,1279,0,
0,0,0,0,0,0,0,0,456,280,114,114,114,114,114,456,114,114,914,0,0,0,0,0,0,456,0,717,0,0,0,0,0,0,0,0,0,0,0,0,
0,0,686,687,688,631,632,1021,456,0,0,0,0,0,0,456,0,914,0,0,0,0,0,0,630,456,0,717,941,0,0,0,0,0,0,0,0,0,0,0,
566,566,566,566,566,566,566,566,510,566,566,566,566,566,566,511,914,0,0,0,0,0,0,0,630,456,0,773,774,774,774,774,774,774,734,846,774,774,774,774,
1135,1136,1080,1080,1079,1079,1080,1080,1079,0,0,0,0,914,914,914,0,0,0,914,0,0,0,0,0,456,0,0,0,0,0,630,630,630,621,678,0,630,630,0,
1191,1192,1079,1079,1079,1079,1079,1079,1079,914,914,914,914,401,0,0,0,397,0,0,914,566,566,566,566,510,566,622,622,622,622,622,622,622,0,678,0,0,630,630,
914,914,914,914,914,914,914,914,914,0,0,0,0,0,0,0,0,456,0,0,0,914,0,0,0,0,0,621,0,0,733,677,677,677,677,680,0,108,0,630,
0,0,0,0,0,0,0,0,0,0,0,0,0,0,0,0,0,509,399,0,0,0,914,617,618,618,619,0,0,0,0,0,0,0,0,0,0,0,0,0,
662,662,662,662,662,662,662,662,662,662,662,662,662,662,662,662,662,663,456,0,0,0,0,673,673,674,675,0,0,0,0,0,0,0,0,0,0,0,0,0,
885,774,774,774,774,774,774,774,774,774,774,774,774,774,774,774,886,719,456,0,0,0,0,673,673,674,675,0,0,0,0,0,0,0,0,0,0,0,0,0,
969,969,969,969,969,719,885,981,982,983,886,0,885,701,702,703,886,719,456,0,0,0,0,0,0,0,0,1252,1252,1252,0,0,0,0,0,0,0,0,0,0,
0,0,0,0,0,719,719,761,762,763,717,0,719,981,982,983,717,719,509,399,0,0,0,914,0,0,0,1252,1252,1252,882,882,165,166,167,168,0,0,0,0,
1196,525,526,527,0,719,719,817,818,819,717,0,719,757,758,759,717,719,0,456,0,0,0,0,0,0,0,881,0,0,0,0,165,166,167,168,882,884,0,0,
1196,581,582,583,0,719,719,1153,1154,1155,717,0,719,645,646,647,717,719,0,456,0,0,0,0,0,0,0,881,0,0,0,0,0,0,0,0,0,0,827,0,
1196,637,638,639,0,719,941,662,1208,662,942,0,941,662,662,662,942,719,0,456,0,0,0,0,0,0,0,939,1108,0,0,0,0,0,0,0,0,938,0,0,
1196,1196,1196,1196,1196,719,0,0,0,0,0,0,0,0,0,0,717,719,0,456,0,0,0,0,0,0,0,0,881,0,0,0,0,0,0,0,1107,940,0,0,
1196,1196,1196,1196,1196,719,0,0,0,0,885,886,0,0,0,0,717,566,566,511,0,0,0,0,914,0,0,0,939,937,937,937,937,937,937,937,940,0,0,0,
1196,1196,1196,1196,971,941,662,662,662,662,941,942,662,662,662,662,942,719,0,0,0,0,0,0,0,0,0,0,0,0,0,0,0,0,0,0,0,0,0,0
</data>
 </layer>
 <layer id="3" name="Tile Layer 3" width="40" height="30">
  <data encoding="csv">
0,0,0,0,0,0,0,0,0,0,0,0,0,0,0,0,0,0,0,0,0,0,0,0,0,0,0,0,0,0,0,0,0,0,0,0,0,0,0,0,
0,0,0,0,0,0,0,0,0,0,0,0,0,0,0,632,632,1036,0,0,0,0,0,0,0,0,0,0,0,0,737,738,739,740,737,738,739,740,0,0,
0,741,742,743,744,741,742,743,744,741,742,743,744,0,632,0,0,632,0,0,0,0,0,0,0,0,0,0,0,0,793,794,795,796,793,794,795,796,0,0,
744,797,798,799,800,797,798,799,800,797,798,799,800,0,632,779,780,862,862,862,863,0,0,851,852,0,0,0,0,0,0,850,851,852,849,850,851,852,0,0,
0,0,0,0,0,0,0,0,856,853,854,855,856,632,632,835,836,1250,0,0,920,0,0,907,908,0,849,850,851,852,0,0,907,908,905,906,907,908,0,0,
0,1077,0,1077,0,0,0,0,1078,909,910,911,912,632,0,0,0,0,0,0,920,0,0,0,0,0,905,906,907,908,0,0,0,0,0,0,0,0,0,0,
0,0,0,0,0,0,0,0,0,0,0,0,0,0,0,0,1117,1030,0,1030,975,0,0,0,0,0,0,0,0,0,0,0,0,0,0,0,0,0,0,0,
0,0,0,0,0,0,0,0,0,0,0,0,0,0,0,0,0,0,0,0,414,246,246,469,0,0,1073,1074,0,0,0,0,0,0,0,0,0,0,0,0,
741,742,743,744,741,742,743,744,0,0,0,0,0,1021,1079,1079,1079,1079,1079,1079,1021,303,303,0,0,0,1129,1130,0,0,0,0,0,0,0,0,0,0,0,0,
797,798,799,800,797,798,799,800,0,0,0,779,780,862,862,862,862,863,1135,1136,0,0,0,1075,1076,0,1185,1186,0,0,0,0,0,0,0,0,0,0,0,0,
853,854,855,856,853,854,855,856,0,0,0,835,836,1250,0,0,0,920,1191,1192,0,0,0,1131,1132,0,1019,0,0,0,0,0,0,0,0,329,0,0,0,0,
909,910,911,912,909,910,911,912,0,0,0,0,0,0,0,0,0,920,1079,1079,0,0,0,1187,1188,0,1019,0,0,0,662,662,0,0,0,385,0,0,0,0,
0,0,0,0,0,0,0,0,0,0,0,0,1117,1030,1030,0,1030,975,513,0,0,630,630,688,631,0,1019,0,0,0,0,0,662,662,662,441,662,662,662,0,
0,0,0,0,0,0,0,0,0,1135,1136,630,0,630,630,0,1080,1080,0,0,0,630,688,631,688,0,1019,0,0,0,0,0,0,0,0,0,0,1175,1175,0,
0,0,0,0,0,0,0,0,0,1191,1192,630,0,630,630,0,1080,0,0,0,630,631,630,688,1176,0,1174,0,0,0,0,0,0,0,0,0,0,0,0,0,
0,0,0,0,0,0,0,0,0,0,0,0,0,0,0,0,0,0,0,687,630,687,631,630,1176,0,1174,0,0,0,0,0,0,0,0,0,0,0,0,0,
0,0,0,0,0,0,0,0,0,1079,1079,1079,1079,0,402,0,0,0,0,0,513,630,687,687,687,0,1019,1019,1019,687,513,0,0,0,0,0,0,0,0,1036,
0,0,0,0,0,0,0,0,0,0,0,0,0,0,0,0,513,414,246,246,246,469,0,0,0,0,0,1070,0,0,0,0,0,0,1126,0,0,0,0,0,
0,0,0,0,0,0,0,0,0,0,0,0,569,1073,1074,0,0,0,0,303,303,0,687,687,687,513,0,0,0,0,0,0,0,0,0,0,1017,0,1017,0,
0,0,0,0,0,0,0,0,0,1080,1080,1080,0,1129,1130,0,0,0,0,0,0,0,0,0,0,0,0,0,0,0,0,0,0,0,0,0,0,0,0,0,
1079,1079,1079,1079,1079,1079,1079,1079,1079,1080,1080,1080,513,1185,1186,0,0,0,0,687,0,0,0,1213,0,0,1213,0,0,0,1213,0,0,1213,0,0,1213,0,0,0,
0,0,0,0,0,0,0,0,0,0,0,0,0,0,0,0,0,0,0,687,0,0,0,0,0,0,0,0,0,0,0,0,0,0,0,0,0,0,0,0,
0,0,0,0,0,0,0,0,0,0,0,0,0,0,0,0,0,0,0,687,687,0,0,513,1080,1021,0,881,0,938,0,0,0,0,0,0,0,0,0,0,
0,0,0,0,0,0,0,0,0,0,0,0,0,0,0,0,0,0,0,0,688,688,0,0,1080,1080,0,881,0,938,0,0,0,0,0,0,0,0,0,0,
1119,1120,0,0,0,0,0,0,0,0,0,0,0,0,0,0,0,0,1176,0,688,688,0,0,1080,1080,0,0,0,0,0,0,0,0,0,0,0,0,0,0,
1118,0,0,0,0,0,0,0,1117,0,0,0,0,0,1117,0,0,0,1176,0,0,0,0,0,1080,1079,0,0,0,0,0,0,0,0,0,0,0,0,0,0,
1176,0,304,0,0,0,0,0,662,0,0,0,0,0,0,0,0,0,0,0,0,0,0,0,1079,1079,0,0,0,0,0,0,0,0,0,0,0,0,0,0,
0,0,413,0,0,469,0,0,0,0,0,0,0,0,0,0,0,0,0,0,0,0,0,0,1079,1079,0,0,0,0,0,0,0,0,0,0,0,0,0,0,
0,0,0,0,0,469,0,0,0,1176,1023,1023,1174,0,0,0,0,0,0,0,0,0,0,0,0,1079,0,0,0,0,0,0,0,0,0,0,0,0,0,0,
0,0,0,0,0,0,0,0,0,1176,1023,1023,1174,0,0,0,0,0,0,1036,0,0,0,0,0,1079,0,0,0,0,0,0,0,0,0,0,0,0,0,0
</data>
 </layer>
 <objectgroup id="6" name="Object Layer 1">
  <object id="1" x="4" y="0" width="248" height="459.333"/>
  <object id="2" x="257.333" y="4" width="272" height="204"/>
  <object id="3" x="531.333" y="2.66667" width="127.333" height="101.333"/>
  <object id="4" x="530" y="105.333" width="39.3333" height="38.6667"/>
  <object id="5" x="294.667" y="253.333" width="114.667" height="208"/>
  <object id="6" x="412" y="408" width="61.3333" height="53.3333"/>
  <object id="7" x="406.667" y="254.667" width="238.667" height="46.6667"/>
  <object id="8" x="412" y="305.333" width="28" height="34.6667"/>
  <object id="9" x="554.667" y="306.667" width="240" height="218.667"/>
  <object id="10" x="514.667" y="420" width="36" height="109.333"/>
  <object id="11" x="652" y="1.33333" width="622.667" height="204.667"/>
  <object id="12" x="806.667" y="216" width="81.3333" height="32"/>
  <object id="13" x="838.667" y="260" width="45.3333" height="268"/>
  <object id="14" x="840" y="488" width="245.333" height="34.6667"/>
  <object id="15" x="965.333" y="210.667" width="56" height="145.333"/>
  <object id="16" x="1024" y="257.333" width="217.333" height="133.333"/>
  <object id="17" x="1189.33" y="416" width="53.3333" height="9.33333"/>
  <object id="18" x="1152" y="486.667" width="128" height="262.667"/>
  <object id="19" x="965.333" y="605.333" width="181.333" height="110.667"/>
  <object id="20" x="1028" y="738.667" width="118.667" height="37.3333"/>
  <object id="21" x="1222.67" y="750.667" width="53.3333" height="41.6667"/>
  <object id="22" x="1250.67" y="796" width="30.6667" height="164"/>
  <object id="23" x="1221.33" y="824.5" width="26.6667" height="131.5"/>
  <object id="24" x="1186.67" y="900" width="29.3333" height="54.6667"/>
  <object id="25" x="852" y="916.167" width="337.333" height="38.5"/>
  <object id="26" x="830.667" y="855.167" width="66.1667" height="98.1667"/>
  <object id="28" x="646.667" y="746.667" width="214.667" height="201.333"/>
  <object id="30" x="580.333" y="569.333" width="90.3333" height="30.3333"/>
  <object id="31" x="676" y="573.333" width="181.333" height="170.667"/>
  <object id="32" x="614.333" y="616" width="60.3333" height="108.333"/>
  <object id="34" x="638.667" y="732" width="33.3333" height="12"/>
  <object id="35" x="2.66667" y="505.333" width="534.667" height="148"/>
  <object id="36" x="206.667" y="702.667" width="128" height="142.667"/>
  <object id="38" x="396" y="709.333" width="174.667" height="132"/>
  <object id="39" x="574.667" y="765.333" width="31.3333" height="120"/>
  <object id="40" x="543.333" y="846" width="29.3333" height="40.6667"/>
  <object id="41" x="539.333" y="925.333" width="105.333" height="30"/>
  <object id="42" x="288" y="900.667" width="121.333" height="51.3333"/>
  <object id="43" x="-0.666667" y="704.667" width="163.333" height="52.6667"/>
  <object id="44" x="126" y="760" width="34.6667" height="92.6667"/>
  <object id="45" x="6.33333" y="762" width="29" height="82.3333"/>
  <object id="46" x="130" y="929.333" width="28" height="28.6667"/>
  <object id="47" x="1.33333" y="956.667" width="1277.33" height="2.66667"/>
  <object id="48" x="1.33333" y="506" width="0.666667" height="447.333"/>
  <object id="49" x="1.33333" y="0.666667" width="0.666667" height="451.333"/>
  <object id="50" x="1277.33" y="211.333" width="0.666667" height="273.333"/>
  <object id="51" x="532" y="147.333" width="7.33333" height="60"/>
  <object id="52" x="545.667" y="207.333" width="24.6667" height="4"/>
  <object id="53" x="614" y="205.667" width="38.6667" height="3.33333"/>
  <object id="55" x="518.667" y="407.333" width="34.6667" height="1.33333"/>
  <object id="56" x="650.667" y="251.333" width="116.667" height="50.6667"/>
  <object id="57" x="771.333" y="286" width="23.3333" height="16.6667"/>
  <object id="71" x="58.5" y="794.5" width="8.5" height="5.5"/>
  <object id="72" x="90.5" y="794" width="8.5" height="5.5"/>
  <object id="73" x="92" y="827" width="7.5" height="6"/>
  <object id="74" x="59.5" y="825.5" width="9" height="7.5"/>
  <object id="75" x="34.5" y="854" width="23" height="2.5"/>
  <object id="76" x="104" y="851" width="20" height="2.5"/>
  <object id="81" x="544" y="642" width="27" height="58"/>
 </objectgroup>
 <objectgroup id="11" name="explosion">
  <object id="80" name="explosion" x="76.5" y="805.75" width="3.25" height="3.875">
   <properties>
    <property name="explosion" value="assets/explosion/explosion.png"/>
   </properties>
  </object>
 </objectgroup>
 <objectgroup id="7" name="professor" visible="0">
  <object id="59" name="professor" x="451" y="365.333" width="5" height="3">
   <properties>
    <property name="idle_left" value="assets/professor/idle_left.png"/>
    <property name="idle_right" value="assets/professor/idle_right.png"/>
    <property name="walkLeft" value="assets/professor/left.png"/>
    <property name="walkRight" value="assets/professor/right.png"/>
   </properties>
  </object>
 </objectgroup>
 <objectgroup id="8" name="enemies" visible="0">
  <object id="60" name="enemy" x="558" y="165" width="13" height="10.6667">
   <properties>
    <property name="deadBack" value="assets/enemy/enemy1 death back.png"/>
    <property name="deadFront" value="assets/enemy/enemy1 death front.png"/>
    <property name="deadLeft" value="assets/enemy/enemy1 death left.png"/>
    <property name="deadRight" value="assets/enemy/enemy1 death right.png"/>
    <property name="hurtBack" value="assets/enemy/enemy1 hurt back.png"/>
    <property name="hurtFront" value="assets/enemy/enemy1 hurt front.png"/>
    <property name="hurtLeft" value="assets/enemy/enemy1 hurt left.png"/>
    <property name="hurtRight" value="assets/enemy/enemy1 hurt right.png"/>
    <property name="spriteBack" value="assets/enemy/enemy1 back attack.png"/>
    <property name="spriteFront" value="assets/enemy/enemy1 front attack.png"/>
    <property name="spriteLeft" value="assets/enemy/enemy1 left attack.png"/>
    <property name="spriteRight" value="assets/enemy/enemy1 right attack.png"/>
    <property name="walkBack" value="assets/enemy/enemy1 back walk.png"/>
    <property name="walkFront" value="assets/enemy/enemy1 front walk.png"/>
    <property name="walkLeft" value="assets/enemy/enemy1 left walk.png"/>
    <property name="walkRight" value="assets/enemy/enemy1 right walk.png"/>
   </properties>
  </object>
  <object id="61" name="enemy" x="901.667" y="387.333" width="26.3333" height="19">
   <properties>
    <property name="deadBack" value="assets/enemy/enemy3 death back.png"/>
    <property name="deadFront" value="assets/enemy/enemy3 death front.png"/>
    <property name="deadLeft" value="assets/enemy/enemy3 death left.png"/>
    <property name="deadRight" value="assets/enemy/enemy3 death right.png"/>
    <property name="hurtBack" value="assets/enemy/enemy3 hurt back.png"/>
    <property name="hurtFront" value="assets/enemy/enemy3 hurt front.png"/>
    <property name="hurtLeft" value="assets/enemy/enemy3 hurt left.png"/>
    <property name="hurtRight" value="assets/enemy/enemy3 hurt right.png"/>
    <property name="spriteBack" value="assets/enemy/enemy3 back attack.png"/>
    <property name="spriteFront" value="assets/enemy/enemy3 front attack.png"/>
    <property name="spriteLeft" value="assets/enemy/enemy3 left attack.png"/>
    <property name="spriteRight" value="assets/enemy/enemy3 right attack.png"/>
    <property name="walkBack" value="assets/enemy/enemy3 back walk.png"/>
    <property name="walkFront" value="assets/enemy/enemy3 front walk.png"/>
    <property name="walkLeft" value="assets/enemy/enemy3 left walk.png"/>
    <property name="walkRight" value="assets/enemy/enemy3 right walk.png"/>
   </properties>
  </object>
  <object id="62" name="enemy" x="1043" y="857.667" width="12.6667" height="8">
   <properties>
    <property name="deadBack" value="assets/enemy/enemy3 death back.png"/>
    <property name="deadFront" value="assets/enemy/enemy3 death front.png"/>
    <property name="deadLeft" value="assets/enemy/enemy3 death left.png"/>
    <property name="deadRight" value="assets/enemy/enemy3 death right.png"/>
    <property name="hurtBack" value="assets/enemy/enemy3 hurt back.png"/>
    <property name="hurtFront" value="assets/enemy/enemy3 hurt front.png"/>
    <property name="hurtLeft" value="assets/enemy/enemy3 hurt left.png"/>
    <property name="hurtRight" value="assets/enemy/enemy3 hurt right.png"/>
    <property name="spriteBack" value="assets/enemy/enemy3 back attack.png"/>
    <property name="spriteFront" value="assets/enemy/enemy3 front attack.png"/>
    <property name="spriteLeft" value="assets/enemy/enemy3 left attack.png"/>
    <property name="spriteRight" value="assets/enemy/enemy3 right attack.png"/>
    <property name="walkBack" value="assets/enemy/enemy3 back walk.png"/>
    <property name="walkFront" value="assets/enemy/enemy3 front walk.png"/>
    <property name="walkLeft" value="assets/enemy/enemy3 left walk.png"/>
    <property name="walkRight" value="assets/enemy/enemy3 right walk.png"/>
   </properties>
  </object>
  <object id="63" name="enemy" x="36" y="873" width="12.3333" height="9">
   <properties>
    <property name="deadBack" value="assets/enemy/enemy1 death back.png"/>
    <property name="deadFront" value="assets/enemy/enemy1 death front.png"/>
    <property name="deadLeft" value="assets/enemy/enemy1 death left.png"/>
    <property name="deadRight" value="assets/enemy/enemy1 death right.png"/>
    <property name="hurtBack" value="assets/enemy/enemy1 hurt back.png"/>
    <property name="hurtFront" value="assets/enemy/enemy1 hurt front.png"/>
    <property name="hurtLeft" value="assets/enemy/enemy1 hurt left.png"/>
    <property name="hurtRight" value="assets/enemy/enemy1 hurt right.png"/>
    <property name="spriteBack" value="assets/enemy/enemy1 back attack.png"/>
    <property name="spriteFront" value="assets/enemy/enemy1 front attack.png"/>
    <property name="spriteLeft" value="assets/enemy/enemy1 left attack.png"/>
    <property name="spriteRight" value="assets/enemy/enemy1 right attack.png"/>
    <property name="walkBack" value="assets/enemy/enemy1 back walk.png"/>
    <property name="walkFront" value="assets/enemy/enemy1 front walk.png"/>
    <property name="walkLeft" value="assets/enemy/enemy1 left walk.png"/>
    <property name="walkRight" value="assets/enemy/enemy1 right walk.png"/>
   </properties>
  </object>
 </objectgroup>
 <objectgroup id="9" name="slime1" visible="0">
  <object id="64" name="slime1" x="368" y="211" width="9" height="7">
   <properties>
    <property name="deadBack" value="assets/enemy/slime1 death back.png"/>
    <property name="deadFront" value="assets/enemy/slime1 death front.png"/>
    <property name="deadLeft" value="assets/enemy/slime1 death left.png"/>
    <property name="deadRight" value="assets/enemy/slime1 death right.png"/>
    <property name="hurtBack" value="assets/enemy/slime1 hurt back.png"/>
    <property name="hurtFront" value="assets/enemy/slime1 hurt front.png"/>
    <property name="hurtLeft" value="assets/enemy/slime1 hurt left.png"/>
    <property name="hurtRight" value="assets/enemy/slime1 hurt right.png"/>
    <property name="spriteBack" value="assets/enemy/Slime1_Attack_Back.png"/>
    <property name="spriteFront" value="assets/enemy/Slime1_Attack_Front.png"/>
    <property name="spriteLeft" value="assets/enemy/Slime1_Attack_Left.png"/>
    <property name="spriteRight" value="assets/enemy/Slime1_Attack_Right.png"/>
    <property name="walkBack" value="assets/enemy/Slime1_back.png"/>
    <property name="walkFront" value="assets/enemy/Slime1_front.png"/>
    <property name="walkLeft" value="assets/enemy/Slime1_left.png"/>
    <property name="walkRight" value="assets/enemy/Slime1_right.png"/>
   </properties>
  </object>
  <object id="65" name="slime1" x="315" y="466" width="15" height="9">
   <properties>
    <property name="deadBack" value="assets/enemy/slime3 death back.png"/>
    <property name="deadFront" value="assets/enemy/slime3 death front.png"/>
    <property name="deadLeft" value="assets/enemy/slime3 death left.png"/>
    <property name="deadRight" value="assets/enemy/slime3 death right.png"/>
    <property name="hurtBack" value="assets/enemy/slime3 hurt back.png"/>
    <property name="hurtFront" value="assets/enemy/slime3 hurt front.png"/>
    <property name="hurtLeft" value="assets/enemy/slime3 hurt left.png"/>
    <property name="hurtRight" value="assets/enemy/slime3 hurt right.png"/>
    <property name="spriteBack" value="assets/enemy/Slime3_Attack_Back.png"/>
    <property name="spriteFront" value="assets/enemy/Slime3_Attack_Front.png"/>
    <property name="spriteLeft" value="assets/enemy/Slime3_Attack_Left.png"/>
    <property name="spriteRight" value="assets/enemy/Slime3_Attack_Right.png"/>
    <property name="walkBack" value="assets/enemy/Slime3_back.png"/>
    <property name="walkFront" value="assets/enemy/Slime3_front.png"/>
    <property name="walkLeft" value="assets/enemy/Slime3_left.png"/>
    <property name="walkRight" value="assets/enemy/Slime3_right.png"/>
   </properties>
  </object>
  <object id="66" name="slime1" x="991" y="553" width="15" height="13">
   <properties>
    <property name="deadBack" value="assets/enemy/slime3 death back.png"/>
    <property name="deadFront" value="assets/enemy/slime3 death front.png"/>
    <property name="deadLeft" value="assets/enemy/slime3 death left.png"/>
    <property name="deadRight" value="assets/enemy/slime3 death right.png"/>
    <property name="hurtBack" value="assets/enemy/slime3 hurt back.png"/>
    <property name="hurtFront" value="assets/enemy/slime3 hurt front.png"/>
    <property name="hurtLeft" value="assets/enemy/slime3 hurt left.png"/>
    <property name="hurtRight" value="assets/enemy/slime3 hurt right.png"/>
    <property name="spriteBack" value="assets/enemy/Slime3_Attack_Back.png"/>
    <property name="spriteFront" value="assets/enemy/Slime3_Attack_Front.png"/>
    <property name="spriteLeft" value="assets/enemy/Slime3_Attack_Left.png"/>
    <property name="spriteRight" value="assets/enemy/Slime3_Attack_Right.png"/>
    <property name="walkBack" value="assets/enemy/Slime3_back.png"/>
    <property name="walkFront" value="assets/enemy/Slime3_front.png"/>
    <property name="walkLeft" value="assets/enemy/Slime3_left.png"/>
    <property name="walkRight" value="assets/enemy/Slime3_right.png"/>
   </properties>
  </object>
  <object id="67" name="slime1" x="577" y="528" width="14" height="8">
   <properties>
    <property name="deadBack" value="assets/enemy/slime1 death back.png"/>
    <property name="deadFront" value="assets/enemy/slime1 death front.png"/>
    <property name="deadLeft" value="assets/enemy/slime1 death left.png"/>
    <property name="deadRight" value="assets/enemy/slime1 death right.png"/>
    <property name="hurtBack" value="assets/enemy/slime1 hurt back.png"/>
    <property name="hurtFront" value="assets/enemy/slime1 hurt front.png"/>
    <property name="hurtLeft" value="assets/enemy/slime1 hurt left.png"/>
    <property name="hurtRight" value="assets/enemy/slime1 hurt right.png"/>
    <property name="spriteBack" value="assets/enemy/Slime1_Attack_Back.png"/>
    <property name="spriteFront" value="assets/enemy/Slime1_Attack_Front.png"/>
    <property name="spriteLeft" value="assets/enemy/Slime1_Attack_Left.png"/>
    <property name="spriteRight" value="assets/enemy/Slime1_Attack_Right.png"/>
    <property name="walkBack" value="assets/enemy/Slime1_back.png"/>
    <property name="walkFront" value="assets/enemy/Slime1_front.png"/>
    <property name="walkLeft" value="assets/enemy/Slime1_left.png"/>
    <property name="walkRight" value="assets/enemy/Slime1_right.png"/>
   </properties>
  </object>
  <object id="68" name="slime1" x="429" y="886" width="16" height="13">
   <properties>
    <property name="deadBack" value="assets/enemy/slime3 death back.png"/>
    <property name="deadFront" value="assets/enemy/slime3 death front.png"/>
    <property name="deadLeft" value="assets/enemy/slime3 death left.png"/>
    <property name="deadRight" value="assets/enemy/slime3 death right.png"/>
    <property name="hurtBack" value="assets/enemy/slime3 hurt back.png"/>
    <property name="hurtFront" value="assets/enemy/slime3 hurt front.png"/>
    <property name="hurtLeft" value="assets/enemy/slime3 hurt left.png"/>
    <property name="hurtRight" value="assets/enemy/slime3 hurt right.png"/>
    <property name="spriteBack" value="assets/enemy/Slime3_Attack_Back.png"/>
    <property name="spriteFront" value="assets/enemy/Slime3_Attack_Front.png"/>
    <property name="spriteLeft" value="assets/enemy/Slime3_Attack_Left.png"/>
    <property name="spriteRight" value="assets/enemy/Slime3_Attack_Right.png"/>
    <property name="walkBack" value="assets/enemy/Slime3_back.png"/>
    <property name="walkFront" value="assets/enemy/Slime3_front.png"/>
    <property name="walkLeft" value="assets/enemy/Slime3_left.png"/>
    <property name="walkRight" value="assets/enemy/Slime3_right.png"/>
   </properties>
  </object>
  <object id="69" name="slime1" x="879" y="782" width="17" height="7">
   <properties>
    <property name="deadBack" value="assets/enemy/slime1 death back.png"/>
    <property name="deadFront" value="assets/enemy/slime1 death front.png"/>
    <property name="deadLeft" value="assets/enemy/slime1 death left.png"/>
    <property name="deadRight" value="assets/enemy/slime1 death right.png"/>
    <property name="hurtBack" value="assets/enemy/slime1 hurt back.png"/>
    <property name="hurtFront" value="assets/enemy/slime1 hurt front.png"/>
    <property name="hurtLeft" value="assets/enemy/slime1 hurt left.png"/>
    <property name="hurtRight" value="assets/enemy/slime1 hurt right.png"/>
    <property name="spriteBack" value="assets/enemy/Slime1_Attack_Back.png"/>
    <property name="spriteFront" value="assets/enemy/Slime1_Attack_Front.png"/>
    <property name="spriteLeft" value="assets/enemy/Slime1_Attack_Left.png"/>
    <property name="spriteRight" value="assets/enemy/Slime1_Attack_Right.png"/>
    <property name="walkBack" value="assets/enemy/Slime1_back.png"/>
    <property name="walkFront" value="assets/enemy/Slime1_front.png"/>
    <property name="walkLeft" value="assets/enemy/Slime1_left.png"/>
    <property name="walkRight" value="assets/enemy/Slime1_right.png"/>
   </properties>
  </object>
 </objectgroup>
 <objectgroup id="10" name="treasure">
  <object id="70" name="treasure2" x="75" y="805" width="6" height="5.5">
   <properties>
    <property name="front" value="assets/treasure/treasure chest.png"/>
    <property name="open" value="assets/treasure/treasure chest.png"/>
   </properties>
  </object>
  <object id="77" name="treasure3" x="1120.5" y="887" width="7.5" height="4.5">
   <properties>
    <property name="front" value="assets/treasure/treasure chest.png"/>
    <property name="open" value="assets/treasure/treasure chest.png"/>
   </properties>
  </object>
  <object id="78" name="treasure4" x="911.5" y="366" width="6.5" height="5">
   <properties>
    <property name="front" value="assets/treasure/treasure chest.png"/>
    <property name="open" value="assets/treasure/treasure chest.png"/>
   </properties>
  </object>
  <object id="79" name="treasure1" x="599.5" y="144.5" width="6.5" height="5">
   <properties>
    <property name="front" value="assets/treasure/treasure chest.png"/>
    <property name="open" value="assets/treasure/treasure chest.png"/>
   </properties>
  </object>
 </objectgroup>
 <layer id="4" name="Tile Layer 4" width="40" height="30">
  <data encoding="csv">
0,0,0,0,0,0,0,0,0,0,0,0,0,0,0,0,0,0,0,0,0,0,0,0,0,0,0,0,0,0,0,0,0,0,0,0,0,0,0,0,
0,0,0,0,0,0,0,0,0,0,0,0,0,0,0,0,0,0,0,0,0,0,0,0,0,0,0,0,0,0,0,0,0,0,0,0,0,0,0,0,
0,0,0,0,0,0,0,0,0,0,0,0,0,0,0,0,0,0,0,0,0,0,0,0,0,0,0,0,0,0,0,0,0,0,0,0,0,0,0,0,
0,0,0,0,0,0,0,0,0,0,0,0,0,0,0,0,0,1194,0,0,0,0,0,0,0,0,0,0,0,0,0,0,737,738,739,740,737,738,739,740,
0,0,0,0,0,0,0,744,0,0,0,0,0,0,0,0,0,1194,0,0,0,0,0,0,0,0,0,0,0,0,0,0,793,794,795,796,793,794,795,796,
0,0,0,0,0,0,0,0,0,0,0,0,0,0,0,0,0,0,0,0,0,0,0,0,0,0,0,0,0,0,0,0,849,850,851,852,849,850,851,852,
0,0,0,0,0,0,0,0,0,0,0,0,0,0,1270,1270,1270,0,0,0,0,0,0,0,0,0,0,0,0,0,0,0,905,906,907,908,905,906,907,908,
0,0,0,0,0,0,0,0,0,0,0,0,0,0,0,0,0,0,0,0,0,0,0,0,0,0,0,0,0,0,0,0,0,0,0,0,0,0,0,0,
0,0,0,0,0,0,0,0,0,0,0,0,0,0,0,0,0,0,0,0,0,0,0,0,0,0,0,0,0,0,0,0,0,0,0,0,0,0,0,0,
0,0,0,0,0,0,0,0,0,0,0,0,0,1194,0,0,0,0,0,0,0,0,0,0,0,0,0,0,0,0,613,613,0,0,0,0,0,0,0,0,
741,742,743,744,741,742,743,744,0,0,0,0,0,1194,0,0,0,0,0,0,0,0,0,0,0,0,0,0,0,0,0,0,613,0,0,613,0,0,613,0,
797,798,799,800,797,798,799,800,0,0,0,0,0,0,0,0,0,0,0,0,0,0,1021,0,0,0,0,0,0,0,0,0,0,0,0,0,0,0,0,0,
853,854,855,856,853,854,855,856,0,0,1270,1270,1270,0,0,0,0,0,0,0,0,0,0,0,0,0,0,0,0,0,0,0,0,0,0,1117,0,0,0,0,
909,910,911,912,909,910,911,912,0,0,0,0,0,0,0,0,0,0,0,0,0,0,0,0,0,0,0,0,0,0,0,0,0,0,0,0,0,0,0,0,
0,0,0,0,0,0,0,0,0,0,0,0,0,0,0,0,0,0,0,0,0,0,0,0,0,0,0,0,0,0,0,0,0,0,0,0,0,0,0,0,
0,0,0,0,0,0,0,0,0,0,0,0,0,0,0,0,0,0,0,0,0,0,0,0,0,0,0,0,0,0,0,0,0,0,0,0,0,0,0,0,
0,0,0,0,0,0,0,0,0,0,0,0,0,0,0,0,0,0,0,0,0,0,0,0,0,0,0,0,0,0,0,0,0,0,0,0,630,0,0,0,
0,0,0,0,0,0,0,0,0,0,0,0,0,737,738,739,740,0,0,0,0,0,0,0,0,0,0,0,0,0,0,0,0,0,0,0,630,630,0,0,
0,0,0,0,0,0,0,0,0,0,0,0,0,793,794,795,796,0,0,0,0,0,0,0,0,0,0,0,0,0,0,0,0,0,0,0,0,0,0,0,
0,0,0,0,0,0,0,0,0,0,0,0,0,849,850,851,852,0,0,1021,0,0,0,0,0,0,0,0,0,0,0,0,0,0,0,0,0,0,0,0,
0,0,0,0,0,0,0,0,0,0,0,0,0,905,906,907,908,0,0,0,0,0,0,0,0,0,0,0,0,0,0,0,0,0,0,0,0,0,0,0,
0,0,0,0,0,0,0,0,0,0,0,0,0,0,0,0,0,0,0,0,0,0,0,0,0,0,0,0,0,0,0,0,0,0,0,0,0,0,0,0,
0,0,0,0,0,0,0,0,0,0,0,0,0,0,0,0,0,0,0,0,0,0,0,0,0,0,0,0,0,0,0,0,0,0,0,0,0,0,0,0,
0,0,0,0,0,0,0,0,0,0,0,0,0,0,0,0,0,0,0,0,0,0,0,0,0,0,0,0,0,0,0,0,0,0,0,0,0,0,0,0,
0,0,0,0,0,0,0,0,0,0,0,0,0,0,0,0,0,0,0,0,0,0,0,0,0,0,0,0,0,0,0,0,0,0,0,0,0,0,0,0,
0,0,0,0,0,0,0,0,0,0,0,0,0,0,0,0,0,0,0,0,0,0,0,0,0,0,0,0,0,0,0,0,0,0,0,0,0,0,0,0,
0,0,0,0,0,0,0,0,0,0,0,0,0,0,0,0,0,1135,1136,0,0,0,0,0,0,0,0,0,0,0,0,0,0,0,0,0,0,0,0,0,
0,0,0,0,0,0,0,0,0,0,0,0,0,0,0,0,0,1191,1192,0,0,0,0,0,0,0,0,0,0,0,0,0,0,0,0,0,0,0,0,0,
0,0,0,0,0,0,0,0,0,0,0,0,0,0,0,0,0,0,0,0,1019,1020,1020,0,0,0,0,0,0,0,0,0,0,0,0,0,0,0,0,0,
0,0,0,0,0,0,0,0,0,0,0,0,0,0,0,0,0,0,0,0,1019,1019,1020,0,0,0,0,0,0,0,0,0,0,0,0,0,0,0,0,0
</data>
 </layer>
 <layer id="5" name="Tile Layer 5" width="40" height="30">
  <data encoding="csv">
0,0,0,0,0,0,0,0,0,0,0,0,0,0,0,0,0,0,0,0,0,0,0,0,0,0,0,0,0,0,0,0,0,0,0,0,0,0,0,0,
0,0,0,0,0,0,0,0,0,0,0,0,0,0,0,0,0,0,0,0,0,0,0,0,0,0,0,0,0,0,0,0,0,0,0,0,0,0,0,0,
0,0,0,0,0,0,0,0,0,0,0,0,0,0,0,0,0,0,0,0,0,0,0,0,0,0,0,0,0,0,0,0,0,0,0,0,0,0,0,0,
0,0,0,0,0,0,0,0,0,0,0,0,0,0,0,0,0,0,0,0,0,0,0,0,0,0,0,0,0,0,0,0,0,0,0,0,0,0,0,0,
0,0,0,0,0,0,0,0,0,0,0,0,0,0,0,0,0,0,0,0,0,0,0,0,0,0,0,0,0,0,0,0,0,0,0,0,0,0,0,0,
0,0,0,0,0,0,0,0,0,0,0,0,0,0,0,0,0,0,0,0,0,0,0,0,0,0,0,0,0,0,0,0,0,0,0,0,0,0,0,0,
0,0,0,0,0,0,0,0,0,0,0,0,0,0,0,0,0,0,0,0,0,0,0,0,0,0,0,0,0,0,0,0,0,0,0,0,0,0,0,0,
0,0,0,0,0,0,0,0,0,0,0,0,0,0,0,0,0,0,0,0,0,0,0,0,0,0,0,0,0,0,0,0,0,0,0,0,0,0,0,0,
0,0,0,0,0,0,0,0,0,0,0,0,0,0,0,0,0,0,0,0,0,0,0,0,0,0,0,0,0,0,0,0,0,0,0,0,0,0,0,0,
0,0,0,0,0,0,0,0,0,0,0,0,0,0,0,0,0,0,0,0,0,0,0,0,0,0,0,0,0,0,0,0,0,0,0,0,0,0,0,0,
0,0,0,0,0,0,0,0,0,0,0,0,0,0,0,0,0,0,0,0,0,0,0,0,0,0,0,0,0,0,0,0,0,0,0,0,0,0,0,0,
0,0,0,0,0,0,0,0,0,0,0,0,0,0,0,0,0,0,0,0,0,0,0,0,0,0,0,0,0,0,0,0,0,0,0,0,0,0,0,0,
0,0,0,0,0,0,0,0,0,0,0,0,0,0,0,0,0,0,0,0,0,0,0,0,0,0,0,0,0,0,0,0,0,0,0,0,0,0,0,0,
1135,1136,0,0,0,0,0,0,0,0,0,0,0,0,0,0,0,0,0,0,0,0,0,0,0,0,0,0,0,0,0,0,0,0,0,0,0,0,0,0,
1191,1192,0,0,0,0,0,0,0,0,0,0,0,0,0,0,0,0,0,0,0,0,0,0,0,0,0,0,0,0,0,0,0,0,0,0,0,0,0,0,
0,0,0,0,0,0,0,0,0,0,0,0,0,0,0,0,0,0,0,0,0,0,0,0,0,0,0,0,0,0,0,0,0,0,0,0,0,0,0,0,
0,0,0,0,0,0,0,0,0,0,0,0,0,0,0,0,0,0,0,0,0,0,0,0,0,0,0,0,0,0,0,0,0,0,0,0,0,0,0,0,
0,0,0,0,0,0,0,0,0,0,0,0,0,0,0,0,0,0,0,0,0,0,0,0,0,0,0,0,0,0,0,0,0,0,0,0,0,0,0,0,
0,0,0,0,0,0,0,0,0,0,0,0,0,0,0,0,0,0,0,0,0,0,0,0,0,0,0,0,0,0,0,0,0,0,0,0,0,0,0,0,
0,0,0,0,0,0,0,0,0,0,0,0,0,0,0,0,0,0,0,0,0,0,0,0,0,0,0,0,0,0,0,0,0,0,0,0,0,0,0,0,
0,0,0,0,0,0,0,0,0,0,0,0,0,0,0,0,0,0,0,0,0,0,0,0,0,0,0,0,0,0,0,0,0,0,0,0,0,0,0,0,
0,0,0,0,0,0,0,0,0,0,0,0,0,0,0,0,0,0,0,0,0,0,0,0,0,0,0,0,0,0,0,0,0,0,0,0,0,0,0,0,
0,0,0,0,0,0,0,0,0,0,0,0,0,0,0,0,0,0,0,0,0,0,0,0,0,0,0,0,0,0,0,0,0,0,0,0,0,0,0,0,
0,0,0,0,0,0,0,0,0,0,0,0,0,0,0,0,0,0,0,0,0,0,0,0,0,0,0,0,0,0,0,0,0,0,0,0,0,0,0,0,
0,0,0,0,0,0,0,0,0,0,0,0,0,0,0,0,0,0,0,0,0,0,0,0,0,0,0,0,0,0,0,0,0,0,0,0,0,0,0,0,
0,0,0,0,0,0,0,0,0,0,0,0,0,0,0,0,0,0,0,0,0,0,0,0,0,0,0,0,0,0,0,0,0,0,0,0,0,0,0,0,
0,0,0,0,0,0,0,0,0,0,0,0,0,0,0,0,0,0,0,0,0,0,0,0,0,0,0,0,0,0,0,0,0,0,0,0,0,0,0,0,
0,0,0,0,0,0,0,0,0,0,0,0,0,0,0,0,0,0,0,0,0,0,0,0,0,0,0,0,0,0,0,0,0,0,0,0,0,0,0,0,
0,0,0,0,0,0,0,0,0,0,0,0,0,0,0,0,0,0,0,0,0,0,0,0,0,0,0,0,0,0,0,0,0,0,0,0,0,0,0,0,
0,0,0,0,0,0,0,0,0,0,0,0,0,0,0,0,0,0,0,0,0,0,0,0,0,0,0,0,0,0,0,0,0,0,0,0,0,0,0,0
</data>
 </layer>
</map>
