<?xml version="1.0" encoding="UTF-8"?>
<map version="1.10" tiledversion="1.11.2" orientation="orthogonal" renderorder="right-down" width="40" height="30" tilewidth="32" tileheight="32" infinite="0" nextlayerid="12" nextobjectid="70">
 <editorsettings>
  <export target="map5.tmj" format="json"/>
 </editorsettings>
 <tileset firstgid="1" source="../../../../../../../OneDrive/Desktop/map132.tsx"/>
 <layer id="1" name="Tile Layer 1" width="40" height="30">
  <data encoding="csv">
114,114,114,114,114,114,114,114,114,114,114,114,114,114,114,114,114,114,114,114,114,114,114,114,114,114,114,114,114,114,1150,1150,1150,1150,1150,1150,1150,1150,1150,1150,
114,114,114,114,114,114,114,114,114,114,114,114,114,114,114,114,114,114,114,114,114,114,114,114,114,114,114,114,114,114,1150,1150,1150,1150,1150,1150,1150,1150,1150,1150,
114,114,114,114,118,118,118,118,118,118,118,118,118,118,118,118,118,118,118,118,118,118,114,114,114,114,114,114,114,114,1150,1150,1150,1150,1150,1150,1150,1150,1150,1150,
114,114,114,114,118,114,114,114,114,114,114,464,69,70,71,464,114,114,114,114,114,118,114,114,114,114,114,114,114,114,1150,1150,1150,1150,1150,1150,1150,1150,1150,1150,
114,114,114,118,118,114,114,114,114,114,114,464,125,126,127,464,114,114,114,114,114,118,114,114,114,913,914,114,114,114,1150,1150,1150,1150,1150,1150,1150,1150,1150,1150,
114,114,114,118,114,114,114,114,114,114,114,464,181,182,183,464,114,114,114,114,114,118,114,114,913,244,244,913,114,114,1150,1150,1150,1150,1150,1150,1150,1150,1150,1150,
114,114,114,118,114,114,114,114,114,114,114,464,464,464,464,464,114,114,114,114,114,118,114,114,244,244,244,244,114,114,1150,1150,1150,1150,1150,1150,1150,1150,1150,1150,
118,118,118,118,118,118,118,118,118,118,118,118,118,118,118,118,118,118,118,118,118,118,118,118,244,244,244,114,114,114,114,114,114,114,114,114,114,114,114,114,
118,406,981,982,927,463,118,887,887,887,887,887,887,887,887,887,887,118,114,114,114,114,114,118,114,244,244,114,114,114,114,114,114,114,114,114,114,114,114,114,
118,406,925,982,927,463,118,887,887,887,887,122,122,887,122,122,887,118,114,114,114,114,114,118,114,244,244,114,114,114,114,265,114,114,114,114,114,114,114,114,
118,406,1037,1038,1039,463,118,887,887,887,887,122,122,887,122,122,887,118,114,114,114,114,114,118,118,244,244,118,118,118,118,118,114,114,118,114,114,114,114,114,
118,406,701,646,703,463,118,887,887,887,887,887,887,887,887,887,887,118,114,114,114,114,114,118,114,244,244,114,114,114,114,118,118,118,118,114,114,114,114,114,
118,406,462,463,462,463,118,887,887,887,887,887,887,887,887,887,887,118,114,114,114,114,114,118,114,244,244,114,114,114,114,118,114,114,913,913,114,114,114,114,
118,118,118,118,118,118,118,118,118,118,118,118,118,118,118,118,118,118,118,118,118,118,118,118,114,244,244,114,114,114,114,118,114,913,244,244,913,114,114,114,
114,118,1205,1205,1205,1205,118,114,114,114,114,114,114,114,118,114,114,114,114,114,114,114,118,114,114,244,244,114,114,114,114,118,114,244,244,244,244,114,114,114,
114,118,1205,1205,1205,1205,118,114,114,114,114,114,114,114,118,114,114,114,114,114,114,114,118,118,118,244,244,118,118,118,118,118,114,244,244,244,244,114,114,114,
114,118,1205,1205,1205,1205,118,114,114,114,114,114,114,114,118,114,114,114,114,114,114,114,118,114,114,244,244,114,114,114,114,114,114,244,244,244,244,114,114,114,
114,118,1205,1205,1205,1205,118,114,114,114,114,114,114,114,118,114,114,114,114,114,114,114,118,114,114,244,244,114,114,114,114,114,114,244,244,244,244,114,114,114,
114,118,1205,1205,1205,1205,118,114,114,114,114,114,114,114,118,114,114,114,114,114,114,114,118,114,114,244,244,913,114,114,114,114,114,244,244,244,244,114,114,114,
114,118,1205,1205,1205,1205,118,114,114,114,114,114,114,114,118,114,114,114,114,114,114,114,118,114,114,114,244,244,913,114,114,114,114,244,244,244,244,114,114,114,
114,118,118,118,118,118,118,114,114,114,114,114,114,114,118,114,114,114,114,114,114,114,118,114,114,114,114,244,244,114,114,114,114,244,244,244,244,114,114,114,
114,118,118,118,118,118,118,118,118,118,118,118,118,118,118,118,118,118,118,118,118,118,118,114,114,114,913,244,114,114,114,114,913,244,244,244,244,114,114,114,
114,118,114,114,114,114,69,70,70,70,70,70,70,71,118,114,114,114,114,114,114,114,118,114,114,114,244,244,114,114,114,114,114,244,244,244,244,114,114,114,
114,118,118,118,118,114,125,114,114,126,126,126,126,127,118,114,114,913,913,913,913,114,338,114,114,114,244,244,913,913,913,913,244,244,244,244,244,114,114,114,
114,114,114,114,118,114,125,114,114,114,114,126,126,127,118,114,913,244,244,244,244,244,244,244,244,244,244,244,244,244,244,244,244,244,244,244,244,114,114,114,
114,114,114,114,118,114,125,114,114,114,114,126,126,127,118,913,244,244,244,244,244,244,244,244,244,244,244,244,244,244,244,244,244,244,244,244,244,913,913,913,
114,114,114,114,118,114,125,114,114,114,114,126,126,127,118,244,244,244,244,244,244,244,244,244,244,244,244,244,244,244,244,244,244,244,244,244,244,244,244,244,
114,114,114,114,118,114,125,114,114,114,114,126,126,127,118,244,244,244,244,244,244,244,244,244,244,244,244,244,244,244,244,244,244,244,244,244,244,244,244,244,
114,114,114,114,118,114,181,182,182,182,182,182,182,183,118,244,244,244,244,244,244,244,244,244,244,244,244,244,244,244,244,244,244,244,244,244,244,244,244,244,
114,114,114,114,118,118,118,118,118,118,118,118,118,118,118,244,244,244,244,244,244,244,244,244,244,244,244,244,244,244,244,244,244,244,244,244,244,244,244,244
</data>
 </layer>
 <layer id="2" name="Tile Layer 2" width="40" height="30">
  <data encoding="csv">
853,854,855,856,853,854,855,856,853,854,855,856,853,854,855,856,853,854,855,856,853,854,855,856,853,854,855,856,1135,1136,883,882,882,882,882,882,882,882,882,884,
909,910,911,912,909,910,911,912,909,910,911,912,909,910,911,912,909,910,911,912,909,910,911,912,909,910,911,912,1191,1192,881,0,1196,1140,1196,1140,1196,1140,0,627,
0,0,1135,1136,397,566,566,566,566,566,566,566,566,566,566,566,566,566,566,566,566,399,1023,1020,1020,1020,1135,1136,1135,1136,881,0,1140,1196,1140,1196,1140,1196,0,938,
1135,1136,1191,1192,456,1020,989,990,0,989,990,883,882,882,882,884,989,990,0,989,990,456,1023,1020,1020,1020,1191,1192,1191,1192,881,0,1196,1140,1196,1140,1196,1140,0,938,
1191,1192,1079,397,511,1020,1045,1046,999,1045,1046,881,0,0,0,938,1045,1046,999,1045,1046,456,1023,1020,1020,0,0,569,0,0,881,0,1140,1196,1140,1196,1140,1196,260,938,
1079,1135,1136,456,1020,1020,701,703,1006,813,815,881,0,0,0,938,981,983,0,813,815,456,1023,1020,457,0,0,0,0,0,881,0,1196,1140,1196,1140,1196,1140,316,627,
1079,1191,1192,456,569,1020,0,0,1020,0,0,939,265,81,267,940,0,0,1020,0,1021,456,1023,1020,0,0,0,0,0,0,1023,1023,1023,1196,1140,1196,1140,1023,1023,1023,
397,566,566,510,566,566,398,566,566,566,566,566,566,566,566,566,566,398,566,566,566,510,566,399,0,401,0,1073,1074,0,321,322,323,83,84,83,84,321,322,323,
456,0,0,0,0,0,456,883,882,882,882,882,882,882,882,882,884,456,1008,165,166,167,951,456,1023,0,0,1129,1130,0,265,266,267,81,81,81,82,265,266,267,
456,0,0,0,0,0,456,881,1175,1175,717,0,0,717,623,624,938,456,0,0,0,0,0,456,1023,0,401,1185,1186,0,265,266,267,81,81,81,82,265,266,553,
456,0,0,0,0,0,456,881,1175,1175,717,0,0,717,679,680,938,456,893,165,166,167,725,453,566,0,0,566,566,566,566,399,0,0,456,0,0,1077,1078,1036,
456,0,0,1117,0,0,456,881,1175,1175,0,0,0,0,0,0,938,456,0,0,0,0,0,456,1079,0,0,0,0,0,0,453,566,566,511,0,0,1133,1134,0,
456,0,0,0,0,0,456,939,937,937,937,937,937,937,0,937,940,456,1054,165,166,167,998,456,1079,0,0,0,1075,1076,0,456,1079,0,457,457,0,1189,1190,0,
509,398,566,566,566,566,454,566,566,566,566,566,566,566,454,566,566,510,566,566,566,566,398,511,1079,0,0,1021,1131,1132,0,456,1079,0,0,0,0,0,0,0,
1079,456,0,0,0,0,456,0,0,768,0,0,0,1021,456,0,0,768,0,0,0,1036,456,0,0,0,0,1021,1187,1188,1022,456,1079,0,0,0,0,737,738,739,
1079,456,0,1021,1021,0,456,1174,263,654,264,0,0,1176,456,1174,263,653,264,0,0,1176,453,566,566,681,0,566,566,566,566,511,1079,0,0,0,0,793,794,795,
1079,456,0,1021,0,0,456,631,373,710,374,597,597,631,456,632,261,709,262,597,597,632,456,1175,1175,0,0,1023,1079,1079,1079,1079,1079,0,0,0,0,849,794,795,
1079,456,0,0,0,0,456,631,925,926,927,543,544,631,456,632,869,870,871,487,488,632,456,741,742,743,744,1023,0,741,742,743,744,0,401,402,0,849,794,795,
1079,456,0,0,0,0,456,631,869,870,871,375,376,631,456,632,813,814,815,261,262,632,456,797,798,799,800,0,1023,797,798,799,800,0,402,402,0,793,794,795,
1079,456,0,0,0,0,456,631,645,646,647,761,763,631,456,632,701,646,703,813,815,632,456,853,854,855,856,0,457,853,854,855,856,0,0,401,0,849,794,795,
1079,621,0,0,0,0,0,631,631,0,631,631,631,631,456,632,632,0,632,632,632,632,456,909,910,911,912,0,0,909,910,911,912,0,0,0,0,793,794,795,
1079,621,0,0,0,0,0,0,0,0,0,0,0,0,454,566,566,566,566,566,566,566,455,0,0,1079,0,0,1020,1020,1020,1020,0,0,0,0,0,849,794,795,
1079,621,1024,1024,1024,1024,0,263,264,0,0,0,0,0,456,631,631,1023,1023,1023,1023,0,456,0,0,0,0,0,1020,1020,1020,1020,244,0,0,0,0,0,0,0,
1079,509,566,566,399,1024,0,319,320,0,0,0,0,0,456,631,1023,0,0,0,0,1079,1082,1079,0,0,0,0,0,0,0,0,0,0,0,0,0,0,0,0,
0,0,0,0,456,1024,0,1103,1104,597,597,625,625,628,456,1023,0,0,0,0,0,916,1195,457,914,916,0,0,0,0,0,0,0,0,0,0,0,0,0,0,
0,0,0,0,456,1024,1056,97,99,1101,1102,625,625,684,456,457,0,0,0,0,0,0,1195,0,0,402,0,0,0,0,0,0,0,0,0,0,0,0,0,0,
0,0,0,0,456,1024,0,153,154,209,211,625,625,625,456,0,0,0,0,0,0,0,1195,0,0,0,0,402,0,213,214,215,216,0,0,0,0,0,0,0,
0,0,0,0,456,1024,0,209,267,153,155,625,625,625,456,0,0,0,0,0,0,0,1195,457,0,0,0,0,0,1082,270,271,272,164,0,0,0,0,0,0,
0,0,0,0,456,1024,0,0,0,0,0,0,0,0,456,0,0,0,0,0,0,0,1195,0,0,0,1081,1081,1081,1084,217,218,218,220,0,0,0,0,0,0,
0,0,0,0,509,566,566,566,566,566,566,566,566,566,511,0,0,0,0,0,0,0,0,0,0,0,0,0,0,1251,273,274,274,276,269,0,0,0,0,0
</data>
 </layer>
 <layer id="3" name="Tile Layer 3" width="40" height="30">
  <data encoding="csv">
0,0,0,0,0,0,853,854,855,856,853,854,855,856,853,854,855,856,853,854,855,856,853,854,855,856,0,0,0,0,883,882,882,882,882,882,882,882,425,884,
0,0,0,0,0,0,909,910,911,912,909,910,911,912,909,910,911,912,909,910,911,912,909,910,911,912,0,0,0,0,881,0,627,0,0,0,0,0,425,938,
0,0,0,0,0,0,0,0,0,0,0,0,0,0,0,0,0,0,0,0,0,0,0,0,0,0,0,0,0,0,881,0,0,0,0,0,0,0,0,938,
0,0,0,0,0,0,0,0,0,0,0,0,0,0,0,0,0,0,0,0,0,0,0,0,0,0,0,0,0,0,881,89,0,0,0,0,0,0,89,938,
0,0,0,0,0,0,0,0,0,0,0,0,0,0,0,0,0,0,0,0,0,0,0,0,0,0,0,0,1073,1074,881,425,0,0,0,0,0,0,425,938,
0,0,0,0,0,0,446,447,0,438,438,0,0,0,0,0,446,447,1005,438,438,0,0,0,681,0,0,0,1129,1130,881,425,627,0,0,0,0,0,425,938,
0,0,0,0,0,0,0,0,0,0,0,0,0,0,0,0,0,0,0,0,0,0,0,0,681,0,0,0,1185,1186,939,937,937,0,0,0,0,937,937,940,
0,0,0,0,0,0,0,0,0,0,0,0,0,0,0,0,0,0,0,0,0,0,0,0,681,0,0,0,1073,1074,671,671,671,0,0,0,0,671,671,671,
0,0,0,0,0,0,0,0,0,0,0,662,662,661,662,662,663,0,0,0,0,0,0,0,0,681,0,0,1129,1130,0,1073,1074,0,0,0,0,1073,1074,0,
0,0,0,0,0,0,0,0,0,0,0,1019,1019,0,0,0,719,0,0,0,0,0,0,0,0,681,0,0,1185,1186,0,1129,1130,0,0,0,0,1129,1130,0,
0,0,0,0,0,0,0,0,0,0,0,1019,1019,0,0,0,719,0,0,0,0,0,0,0,414,246,246,469,0,0,0,1185,1186,0,0,1019,1019,1185,1186,0,
0,0,0,0,0,0,0,0,0,0,0,0,0,773,774,774,775,0,0,0,0,0,0,0,0,303,303,1135,1136,1135,1136,0,0,0,0,1019,0,1077,1078,0,
0,0,0,0,0,0,0,0,0,0,0,0,0,0,0,0,0,0,0,0,0,0,0,0,0,0,0,1191,1192,1191,1192,0,0,1019,0,0,1019,1133,1134,0,
0,0,0,0,0,0,0,0,0,0,0,0,0,0,0,0,0,0,0,0,0,0,0,0,0,0,0,0,0,0,0,0,0,681,0,0,0,1189,1190,0,
0,0,861,862,862,863,0,0,0,0,0,0,0,0,0,0,0,0,0,0,0,0,0,0,0,0,0,0,0,0,0,0,0,681,0,0,0,0,0,0,
0,0,920,0,0,920,0,0,0,0,0,0,0,0,0,0,0,0,0,0,0,0,0,0,414,246,246,469,0,0,0,0,0,681,0,0,0,0,0,0,
0,0,976,0,0,976,0,0,0,0,0,0,0,0,0,0,0,0,0,0,0,0,0,0,0,303,303,0,0,0,0,0,0,681,0,0,0,0,0,0,
0,0,920,0,0,920,0,0,0,0,0,0,0,0,0,0,0,0,0,0,0,0,0,0,0,0,0,0,0,0,0,0,0,681,0,0,0,0,0,0,
0,0,920,0,0,920,0,0,0,0,0,0,0,0,0,0,0,0,0,0,0,0,0,0,0,0,0,0,0,0,0,0,0,681,0,0,0,0,0,0,
0,0,973,0,1030,975,0,0,0,1117,0,0,0,0,0,0,0,1117,0,0,0,0,0,0,0,0,0,0,0,0,0,0,0,681,0,0,0,0,0,0,
0,0,622,622,622,622,678,0,0,0,0,0,0,0,0,0,0,0,0,0,0,0,0,1077,1078,0,0,0,0,0,0,0,0,681,0,0,0,0,0,0,
0,0,733,677,677,677,677,566,566,566,566,566,566,566,0,0,0,0,0,0,0,0,0,1133,1134,0,0,0,0,0,0,0,681,0,0,0,0,0,0,0,
0,846,0,0,0,0,0,0,0,0,0,0,0,0,0,0,0,0,0,0,0,0,0,1189,1190,0,0,0,0,0,0,0,681,0,0,0,0,0,0,0,
0,0,0,0,0,0,0,0,0,0,0,0,0,0,0,0,0,0,0,0,0,0,0,0,0,0,0,0,0,0,0,0,0,0,0,0,0,0,0,0,
741,742,743,744,0,0,0,0,0,0,0,0,0,0,0,0,0,0,0,0,0,0,0,0,0,0,0,0,0,0,0,0,0,0,0,0,0,0,0,0,
797,798,799,800,0,0,0,0,0,0,0,0,0,0,0,0,0,0,0,0,0,0,0,0,0,0,0,0,0,0,102,0,0,0,0,0,0,0,0,0,
853,854,855,856,0,0,0,0,0,0,0,0,0,0,0,0,0,0,0,0,0,0,0,0,0,0,0,0,0,0,158,0,0,0,0,0,0,0,0,0,
909,910,911,912,0,0,0,0,1117,0,0,0,0,0,0,0,0,0,0,0,0,0,0,0,0,0,0,0,0,1193,161,102,1193,269,0,0,0,0,0,0,
0,0,0,0,0,0,0,0,0,0,0,0,0,0,0,0,0,0,0,0,0,0,1249,1081,1081,1081,0,0,0,213,0,158,162,0,0,0,0,0,0,0,
0,0,0,0,0,0,0,0,0,0,0,0,0,0,0,0,0,0,0,0,0,0,805,0,805,0,805,0,805,1119,1193,0,1193,0,0,0,0,0,0,0
</data>
 </layer>
 <layer id="4" name="Tile Layer 4" width="40" height="30">
  <data encoding="csv">
0,0,0,0,0,0,0,0,0,0,0,0,0,0,0,0,0,0,0,0,0,0,0,0,0,0,0,0,0,0,1023,425,1023,1023,1023,1023,1023,1023,0,1023,
0,0,0,0,0,0,0,0,0,0,0,0,0,0,0,0,0,0,0,0,0,0,0,0,0,0,0,0,0,0,1023,425,0,0,0,0,0,0,0,1023,
0,0,0,0,0,0,0,0,0,0,0,0,0,0,0,0,0,0,0,0,0,0,0,0,0,0,0,0,0,0,1023,0,0,0,0,0,0,0,0,1023,
0,0,0,0,0,0,0,0,0,0,0,681,0,0,0,625,0,0,0,0,0,0,0,0,0,0,0,0,0,0,1023,0,0,0,0,0,0,0,0,1023,
0,0,0,0,0,0,0,0,681,0,0,681,0,0,0,625,0,0,681,0,0,681,0,0,0,0,0,0,0,0,1023,0,0,0,0,0,0,0,0,1023,
0,0,0,0,0,0,0,0,681,0,0,681,0,0,0,625,0,0,681,0,0,681,0,0,0,0,0,0,0,0,1023,0,0,0,0,0,0,0,0,1023,
0,0,0,0,0,0,0,0,0,0,0,681,0,0,0,625,0,0,0,0,0,0,0,0,0,0,0,0,0,0,0,0,0,0,0,0,0,0,0,0,
0,0,0,0,0,0,0,0,0,0,0,0,0,0,0,0,0,0,0,0,0,0,0,0,0,0,0,0,0,0,0,0,0,0,0,0,0,0,0,0,
0,0,0,0,0,625,0,0,0,0,661,0,0,663,0,0,0,0,0,0,0,0,681,0,0,0,0,0,0,0,0,0,0,0,0,0,0,0,0,0,
0,0,0,0,0,625,0,0,0,0,0,0,0,719,0,0,0,0,0,0,0,0,0,0,0,0,0,0,0,0,0,0,0,0,0,0,0,0,0,0,
0,0,0,0,0,625,0,0,0,0,0,0,0,719,0,0,0,0,0,0,0,0,681,0,0,0,0,0,0,0,0,0,0,0,0,0,0,0,0,0,
0,0,0,0,0,625,0,0,0,0,773,774,774,775,0,0,0,0,0,0,0,0,0,0,0,681,0,0,0,0,0,0,0,0,0,0,0,0,0,0,
0,0,0,0,0,0,0,0,0,0,0,0,0,0,0,0,0,0,0,0,0,0,681,0,0,681,0,0,0,0,0,0,0,0,0,0,0,0,0,0,
0,0,0,0,0,0,0,0,0,0,0,0,0,0,0,0,0,0,0,0,0,0,0,0,0,681,0,0,0,0,0,0,0,0,0,0,0,0,0,0,
0,0,0,0,0,0,0,0,0,0,0,0,0,0,0,0,0,0,0,0,0,0,0,0,0,681,0,0,0,0,0,0,0,0,0,0,0,0,0,0,
0,0,0,0,0,0,0,0,0,0,0,0,0,0,0,0,0,0,0,0,0,0,0,0,0,0,0,0,0,0,0,0,0,0,0,0,0,0,0,0,
0,0,0,0,0,0,0,0,0,0,0,0,0,627,0,0,0,0,0,0,0,627,0,0,0,681,0,0,0,0,0,0,0,0,0,0,0,0,0,0,
0,0,0,0,0,0,0,0,0,0,0,0,0,625,0,0,0,0,0,0,0,625,0,0,0,0,0,0,0,0,0,0,0,0,0,0,0,0,0,0,
0,0,0,0,0,0,0,0,0,0,0,0,0,625,0,0,0,0,0,0,0,625,0,0,0,0,0,0,0,0,0,0,0,0,0,0,0,0,0,0,
0,0,0,0,0,0,0,0,0,0,0,0,0,625,0,0,0,0,0,0,0,625,0,0,0,0,0,0,0,0,0,0,0,0,0,0,0,0,0,0,
0,1125,0,0,0,0,1126,0,0,0,0,0,0,0,0,0,0,0,0,0,0,0,0,0,0,0,0,681,0,0,0,0,0,0,0,0,0,0,0,0,
0,0,0,0,0,0,1125,0,0,0,0,0,0,0,0,0,0,0,0,0,0,0,0,0,1077,1078,681,0,0,0,0,0,0,0,0,0,0,737,738,739,
0,0,0,0,0,0,0,0,0,0,0,0,0,0,0,0,0,0,0,0,0,0,0,0,1133,1134,681,0,0,0,0,0,0,0,0,0,0,793,794,795,
0,0,0,0,0,0,0,0,0,0,0,0,0,0,0,0,0,0,0,0,0,0,0,0,1189,1190,681,0,0,0,0,0,0,0,0,0,0,849,850,851,
0,0,0,0,0,0,0,0,0,0,0,0,0,0,0,0,0,0,0,0,0,0,0,681,0,0,0,0,0,0,0,0,0,0,0,0,0,905,906,907,
0,0,0,0,0,0,0,0,0,0,0,0,0,0,0,0,0,0,0,0,0,0,0,681,0,0,0,0,0,0,0,0,0,0,0,0,0,0,0,0,
741,742,743,744,0,0,0,0,0,0,0,0,0,0,0,0,0,0,0,0,0,0,0,681,0,0,0,0,0,0,0,0,0,0,0,0,0,0,0,0,
797,798,799,800,0,0,0,0,0,0,0,0,0,0,0,0,0,0,0,0,0,0,0,681,0,0,0,0,0,0,0,0,0,0,0,0,0,0,0,0,
853,854,855,856,0,0,0,0,0,0,0,0,0,0,0,0,0,0,0,0,0,0,0,0,0,0,0,0,0,0,0,0,0,0,0,0,0,0,0,0,
909,910,911,912,0,0,0,0,0,0,0,0,0,0,0,0,0,0,0,0,0,0,0,0,0,0,0,0,0,0,0,0,0,0,0,0,0,0,0,0
</data>
 </layer>
 <objectgroup id="5" name="Object Layer 1" visible="0">
  <object id="1" x="0.666667" y="-0.666667" width="1019.33" height="47.3334"/>
  <object id="2" x="1.33333" y="40.6667" width="122.667" height="75.3333"/>
  <object id="3" x="0.666667" y="119.333" width="94" height="92.6667"/>
  <object id="4" x="130.667" y="153.333" width="62.6667" height="56.6667"/>
  <object id="5" x="162.667" y="93.3333" width="215.333" height="116.667"/>
  <object id="6" x="34.6667" y="253.333" width="152" height="151.333"/>
  <object id="7" x="225.333" y="254" width="317.333" height="14.6667"/>
  <object id="8" x="257.333" y="289.333" width="59.3333" height="66.6667"/>
  <object id="9" x="347.333" y="283.333" width="72" height="57.3333"/>
  <object id="10" x="228" y="270" height="130"/>
  <object id="11" x="231.333" y="401.333" width="207.333"/>
  <object id="12" x="485.333" y="402.667" width="52.6667"/>
  <object id="13" x="536" y="262" width="4.66667" height="140"/>
  <object id="14" x="-0.666667" y="234.667" width="2.66667" height="204.667"/>
  <object id="15" x="0.666667" y="447.333" width="27.3333" height="309.333"/>
  <object id="16" x="1.33333" y="766" width="124" height="187.333"/>
  <object id="17" x="70.6667" y="699.333" width="373.333" height="22"/>
  <object id="18" x="161.333" y="722" width="181.333" height="162"/>
  <object id="19" x="167.333" y="889.333" width="21.3333" height="28"/>
  <object id="20" x="64" y="443.334" width="125.333" height="21.3333"/>
  <object id="21" x="65.3333" y="464.667" width="3.33333" height="164.667"/>
  <object id="22" x="70.6667" y="626" width="15.3333"/>
  <object id="23" x="134.667" y="626" width="32"/>
  <object id="24" x="170" y="467.333" width="20" height="160"/>
  <object id="25" x="225.333" y="447.167" width="220.667" height="190.833"/>
  <object id="26" x="481.333" y="446.666" width="220.667" height="193.334"/>
  <object id="27" x="580.667" y="252.666" width="154.667" height="145.334"/>
  <object id="28" x="706" y="50" width="310.667" height="158.667"/>
  <object id="30" x="768" y="208" width="281.333" height="100"/>
  <object id="31" x="1025.33" y="310" width="28.6667" height="30.6667"/>
  <object id="32" x="1058" y="322.667" width="24.6667" height="17.3333"/>
  <object id="33" x="769.333" y="348.667" width="218.667" height="118"/>
  <object id="34" x="738" y="450" width="30" height="17.3333"/>
  <object id="35" x="480.667" y="702" width="216.667" height="254.667"/>
  <object id="36" x="738" y="507.333" width="325.333" height="370"/>
  <object id="37" x="933.333" y="508" width="344.667" height="450.667"/>
  <object id="38" x="1026" y="381.333" width="252" height="122.667"/>
  <object id="39" x="1125.33" y="318.667" width="151.333" height="59.3333"/>
  <object id="40" x="1190" y="214" width="88.6667" height="102"/>
  <object id="41" x="982.667" y="2.66667" width="294.667" height="17.3333"/>
  <object id="42" x="1217.33" y="0" width="60.6667" height="212.667"/>
  <object id="43" x="1193.33" y="197.333" width="13.3333" height="6.66667"/>
  <object id="44" x="698" y="924" width="230.667" height="36"/>
  <object id="45" x="2" y="954" width="474" height="6.66667"/>
  <object id="46" x="484.667" y="92.6667" width="188.667" height="121.333"/>
  <object id="47" x="451.333" y="190" width="32" height="22"/>
  <object id="48" x="384.667" y="192.667" width="28" height="21.3333"/>
  <object id="49" x="381.333" y="90.6667" width="100" height="0.666667"/>
  <object id="52" x="446" y="704.5" width="2.5" height="208.5"/>
 </objectgroup>
 <objectgroup id="6" name="enemies" visible="0">
  <object id="57" name="enemy" x="782.5" y="884.5" width="7.5" height="4">
   <properties>
    <property name="deadBack" value="assets/enemy/enemy2 death back.png"/>
    <property name="deadFront" value="assets/enemy/enemy2 death front.png"/>
    <property name="deadLeft" value="assets/enemy/enemy2 death left.png"/>
    <property name="deadRight" value="assets/enemy/enemy2 death right.png"/>
    <property name="hurtBack" value="assets/enemy/enemy2 hurt back.png"/>
    <property name="hurtFront" value="assets/enemy/enemy2 hurt front.png"/>
    <property name="hurtLeft" value="assets/enemy/enemy2 hurt left.png"/>
    <property name="hurtRight" value="assets/enemy/enemy2 hurt right.png"/>
    <property name="spriteBack" value="assets/enemy/enemy2 back attack.png"/>
    <property name="spriteFront" value="assets/enemy/enemy2 front attack.png"/>
    <property name="spriteLeft" value="assets/enemy/enemy2 left attack.png"/>
    <property name="spriteRight" value="assets/enemy/enemy2 right attack.png"/>
    <property name="walkBack" value="assets/enemy/enemy2 back walk.png"/>
    <property name="walkFront" value="assets/enemy/enemy2 front walk.png"/>
    <property name="walkLeft" value="assets/enemy/enemy2 left walk.png"/>
    <property name="walkRight" value="assets/enemy/enemy2 right walk.png"/>
   </properties>
  </object>
  <object id="59" name="enemy" x="419.667" y="350.333" width="7" height="6.5">
   <properties>
    <property name="deadBack" value="assets/enemy/enemy1 death back.png"/>
    <property name="deadFront" value="assets/enemy/enemy1 death front.png"/>
    <property name="deadLeft" value="assets/enemy/enemy1 death left.png"/>
    <property name="deadRight" value="assets/enemy/enemy1 death right.png"/>
    <property name="hurtBack" value="assets/enemy/enemy1 hurt back.png"/>
    <property name="hurtFront" value="assets/enemy/enemy1 hurt front.png"/>
    <property name="hurtLeft" value="assets/enemy/enemy1 hurt left.png"/>
    <property name="hurtRight" value="assets/enemy/enemy1 hurt right.png"/>
    <property name="spriteBack" value="assets/enemy/enemy1 back attack.png"/>
    <property name="spriteFront" value="assets/enemy/enemy1 front attack.png"/>
    <property name="spriteLeft" value="assets/enemy/enemy1 left attack.png"/>
    <property name="spriteRight" value="assets/enemy/enemy1 right attack.png"/>
    <property name="walkBack" value="assets/enemy/enemy1 back walk.png"/>
    <property name="walkFront" value="assets/enemy/enemy1 front walk.png"/>
    <property name="walkLeft" value="assets/enemy/enemy1 left walk.png"/>
    <property name="walkRight" value="assets/enemy/enemy1 right walk.png"/>
   </properties>
  </object>
  <object id="60" name="enemy" x="402" y="142.167" width="6.5" height="5.5">
   <properties>
    <property name="deadBack" value="assets/enemy/enemy2 death back.png"/>
    <property name="deadFront" value="assets/enemy/enemy2 death front.png"/>
    <property name="deadLeft" value="assets/enemy/enemy2 death left.png"/>
    <property name="deadRight" value="assets/enemy/enemy2 death right.png"/>
    <property name="hurtBack" value="assets/enemy/enemy2 hurt back.png"/>
    <property name="hurtFront" value="assets/enemy/enemy2 hurt front.png"/>
    <property name="hurtLeft" value="assets/enemy/enemy2 hurt left.png"/>
    <property name="hurtRight" value="assets/enemy/enemy2 hurt right.png"/>
    <property name="spriteBack" value="assets/enemy/enemy2 back attack.png"/>
    <property name="spriteFront" value="assets/enemy/enemy2 front attack.png"/>
    <property name="spriteLeft" value="assets/enemy/enemy2 left attack.png"/>
    <property name="spriteRight" value="assets/enemy/enemy2 right attack.png"/>
    <property name="walkBack" value="assets/enemy/enemy2 back walk.png"/>
    <property name="walkFront" value="assets/enemy/enemy2 front walk.png"/>
    <property name="walkLeft" value="assets/enemy/enemy2 left walk.png"/>
    <property name="walkRight" value="assets/enemy/enemy2 right walk.png"/>
   </properties>
  </object>
  <object id="61" name="enemy" x="1073.5" y="109" width="7.5" height="5.5">
   <properties>
    <property name="deadBack" value="assets/enemy/enemy2 death back.png"/>
    <property name="deadFront" value="assets/enemy/enemy2 death front.png"/>
    <property name="deadLeft" value="assets/enemy/enemy2 death left.png"/>
    <property name="deadRight" value="assets/enemy/enemy2 death right.png"/>
    <property name="hurtBack" value="assets/enemy/enemy2 hurt back.png"/>
    <property name="hurtFront" value="assets/enemy/enemy2 hurt front.png"/>
    <property name="hurtLeft" value="assets/enemy/enemy2 hurt left.png"/>
    <property name="hurtRight" value="assets/enemy/enemy2 hurt right.png"/>
    <property name="spriteBack" value="assets/enemy/enemy2 back attack.png"/>
    <property name="spriteFront" value="assets/enemy/enemy2 front attack.png"/>
    <property name="spriteLeft" value="assets/enemy/enemy2 left attack.png"/>
    <property name="spriteRight" value="assets/enemy/enemy2 right attack.png"/>
    <property name="walkBack" value="assets/enemy/enemy2 back walk.png"/>
    <property name="walkFront" value="assets/enemy/enemy2 front walk.png"/>
    <property name="walkLeft" value="assets/enemy/enemy2 left walk.png"/>
    <property name="walkRight" value="assets/enemy/enemy2 right walk.png"/>
   </properties>
  </object>
  <object id="62" name="enemy" x="366.667" y="831" width="6.33333" height="5.66667">
   <properties>
    <property name="deadBack" value="assets/enemy/enemy5 death back.png"/>
    <property name="deadFront" value="assets/enemy/enemy5 death front.png"/>
    <property name="deadLeft" value="assets/enemy/enemy5 death left.png"/>
    <property name="deadRight" value="assets/enemy/enemy5 death right.png"/>
    <property name="hurtBack" value="assets/enemy/enemy5 hurt back.png"/>
    <property name="hurtFront" value="assets/enemy/enemy5 hurt front.png"/>
    <property name="hurtLeft" value="assets/enemy/enemy5 hurt left.png"/>
    <property name="hurtRight" value="assets/enemy/enemy5 hurt right.png"/>
    <property name="spriteBack" value="assets/enemy/enemy5 back attack.png"/>
    <property name="spriteFront" value="assets/enemy/enemy5 front attack.png"/>
    <property name="spriteLeft" value="assets/enemy/enemy5 left attack.png"/>
    <property name="spriteRight" value="assets/enemy/enemy5 right attack.png"/>
    <property name="walkBack" value="assets/enemy/enemy5 back walk.png"/>
    <property name="walkFront" value="assets/enemy/enemy5 front walk.png"/>
    <property name="walkLeft" value="assets/enemy/enemy5 left walk.png"/>
    <property name="walkRight" value="assets/enemy/enemy5 right walk.png"/>
   </properties>
  </object>
 </objectgroup>
 <objectgroup id="10" name="slime1" visible="0">
  <object id="63" name="slime1" x="283.334" y="208.666" width="9.33333" height="8">
   <properties>
    <property name="deadBack" value="assets/enemy/slime2 death back.png"/>
    <property name="deadFront" value="assets/enemy/slime2 death front.png"/>
    <property name="deadLeft" value="assets/enemy/slime2 death left.png"/>
    <property name="deadRight" value="assets/enemy/slime2 death right.png"/>
    <property name="hurtBack" value="assets/enemy/slime2 hurt back.png"/>
    <property name="hurtFront" value="assets/enemy/slime2 hurt front.png"/>
    <property name="hurtLeft" value="assets/enemy/slime2 hurt left.png"/>
    <property name="hurtRight" value="assets/enemy/slime2 hurt right.png"/>
    <property name="spriteBack" value="assets/enemy/Slime2_Attack_Back.png"/>
    <property name="spriteFront" value="assets/enemy/Slime2_Attack_Front.png"/>
    <property name="spriteLeft" value="assets/enemy/Slime2_Attack_Left.png"/>
    <property name="spriteRight" value="assets/enemy/Slime2_Attack_Right.png"/>
    <property name="walkBack" value="assets/enemy/Slime2_back.png"/>
    <property name="walkFront" value="assets/enemy/Slime2_front.png"/>
    <property name="walkLeft" value="assets/enemy/Slime2_left.png"/>
    <property name="walkRight" value="assets/enemy/Slime2_right.png"/>
   </properties>
  </object>
  <object id="64" name="slime1" x="249.333" y="904" width="8.66667" height="6">
   <properties>
    <property name="deadBack" value="assets/enemy/slime3 death back.png"/>
    <property name="deadFront" value="assets/enemy/slime3 death front.png"/>
    <property name="deadLeft" value="assets/enemy/slime3 death left.png"/>
    <property name="deadRight" value="assets/enemy/slime3 death right.png"/>
    <property name="hurtBack" value="assets/enemy/slime3 hurt back.png"/>
    <property name="hurtFront" value="assets/enemy/slime3 hurt front.png"/>
    <property name="hurtLeft" value="assets/enemy/slime3 hurt left.png"/>
    <property name="hurtRight" value="assets/enemy/slime3 hurt right.png"/>
    <property name="spriteBack" value="assets/enemy/Slime3_Attack_Back.png"/>
    <property name="spriteFront" value="assets/enemy/Slime3_Attack_Front.png"/>
    <property name="spriteLeft" value="assets/enemy/Slime3_Attack_Left.png"/>
    <property name="spriteRight" value="assets/enemy/Slime3_Attack_Right.png"/>
    <property name="walkBack" value="assets/enemy/Slime3_back.png"/>
    <property name="walkFront" value="assets/enemy/Slime3_front.png"/>
    <property name="walkLeft" value="assets/enemy/Slime3_left.png"/>
    <property name="walkRight" value="assets/enemy/Slime3_right.png"/>
   </properties>
  </object>
  <object id="65" name="slime1" x="356.666" y="653.334" width="8.66667" height="7.33333">
   <properties>
    <property name="deadBack" value="assets/enemy/slime1 death back.png"/>
    <property name="deadFront" value="assets/enemy/slime1 death front.png"/>
    <property name="deadLeft" value="assets/enemy/slime1 death left.png"/>
    <property name="deadRight" value="assets/enemy/slime1 death left.png"/>
    <property name="hurtBack" value="assets/enemy/slime1 hurt back.png"/>
    <property name="hurtFront" value="assets/enemy/slime1 hurt front.png"/>
    <property name="hurtLeft" value="assets/enemy/slime1 hurt left.png"/>
    <property name="hurtRight" value="assets/enemy/slime1 hurt right.png"/>
    <property name="spriteBack" value="assets/enemy/Slime1_Attack_Back.png"/>
    <property name="spriteFront" value="assets/enemy/Slime1_Attack_Front.png"/>
    <property name="spriteLeft" value="assets/enemy/Slime1_Attack_Left.png"/>
    <property name="spriteRight" value="assets/enemy/Slime1_Attack_Right.png"/>
    <property name="walkBack" value="assets/enemy/Slime1_back.png"/>
    <property name="walkFront" value="assets/enemy/Slime1_front.png"/>
    <property name="walkLeft" value="assets/enemy/Slime1_left.png"/>
    <property name="walkRight" value="assets/enemy/Slime1_right.png"/>
   </properties>
  </object>
  <object id="66" name="slime1" x="554" y="394" width="8.66667" height="10">
   <properties>
    <property name="deadBack" value="assets/enemy/slime2 death back.png"/>
    <property name="deadFront" value="assets/enemy/slime2 death front.png"/>
    <property name="deadLeft" value="assets/enemy/slime2 death left.png"/>
    <property name="deadRight" value="assets/enemy/slime2 death right.png"/>
    <property name="hurtBack" value="assets/enemy/slime2 hurt back.png"/>
    <property name="hurtFront" value="assets/enemy/slime2 hurt front.png"/>
    <property name="hurtLeft" value="assets/enemy/slime2 hurt left.png"/>
    <property name="hurtRight" value="assets/enemy/slime2 hurt right.png"/>
    <property name="spriteBack" value="assets/enemy/Slime2_Attack_Back.png"/>
    <property name="spriteFront" value="assets/enemy/Slime2_Attack_Front.png"/>
    <property name="spriteLeft" value="assets/enemy/Slime2_Attack_Left.png"/>
    <property name="spriteRight" value="assets/enemy/Slime2_Attack_Right.png"/>
    <property name="walkBack" value="assets/enemy/Slime2_back.png"/>
    <property name="walkFront" value="assets/enemy/Slime2_front.png"/>
    <property name="walkLeft" value="assets/enemy/Slime2_left.png"/>
    <property name="walkRight" value="assets/enemy/Slime2_right.png"/>
   </properties>
  </object>
  <object id="67" name="slime1" x="1026.67" y="330.667" width="8.66667" height="7.33333">
   <properties>
    <property name="deadBack" value="assets/enemy/slime3 death back.png"/>
    <property name="deadFront" value="assets/enemy/slime3 death front.png"/>
    <property name="deadLeft" value="assets/enemy/slime3 death left.png"/>
    <property name="deadRight" value="assets/enemy/slime3 death right.png"/>
    <property name="hurtBack" value="assets/enemy/slime3 hurt back.png"/>
    <property name="hurtFront" value="assets/enemy/slime3 hurt front.png"/>
    <property name="hurtLeft" value="assets/enemy/slime3 hurt left.png"/>
    <property name="hurtRight" value="assets/enemy/slime3 hurt right.png"/>
    <property name="spriteBack" value="assets/enemy/Slime3_Attack_Back.png"/>
    <property name="spriteFront" value="assets/enemy/Slime3_Attack_Front.png"/>
    <property name="spriteLeft" value="assets/enemy/Slime3_Attack_Left.png"/>
    <property name="spriteRight" value="assets/enemy/Slime3_Attack_Right.png"/>
    <property name="walkBack" value="assets/enemy/Slime3_back.png"/>
    <property name="walkFront" value="assets/enemy/Slime3_front.png"/>
    <property name="walkLeft" value="assets/enemy/Slime3_left.png"/>
    <property name="walkRight" value="assets/enemy/Slime3_right.png"/>
   </properties>
  </object>
  <object id="68" name="slime1" x="192" y="44.6666" width="10" height="10">
   <properties>
    <property name="deadBack" value="assets/enemy/slime3 death back.png"/>
    <property name="deadFront" value="assets/enemy/slime3 death front.png"/>
    <property name="deadLeft" value="assets/enemy/slime3 death left.png"/>
    <property name="deadRight" value="assets/enemy/slime3 death right.png"/>
    <property name="hurtBack" value="assets/enemy/slime3 hurt back.png"/>
    <property name="hurtFront" value="assets/enemy/slime3 hurt front.png"/>
    <property name="hurtLeft" value="assets/enemy/slime3 hurt left.png"/>
    <property name="hurtRight" value="assets/enemy/slime3 hurt right.png"/>
    <property name="spriteBack" value="assets/enemy/Slime3_Attack_Back.png"/>
    <property name="spriteFront" value="assets/enemy/Slime3_Attack_Front.png"/>
    <property name="spriteLeft" value="assets/enemy/Slime3_Attack_Left.png"/>
    <property name="spriteRight" value="assets/enemy/Slime3_Attack_Right.png"/>
    <property name="walkBack" value="assets/enemy/Slime3_back.png"/>
    <property name="walkFront" value="assets/enemy/Slime3_front.png"/>
    <property name="walkLeft" value="assets/enemy/Slime3_left.png"/>
    <property name="walkRight" value="assets/enemy/Slime3_right.png"/>
   </properties>
  </object>
 </objectgroup>
 <objectgroup id="7" name="treasure">
  <object id="51" name="treasure2" x="368" y="787.5" width="7.5" height="4.5">
   <properties>
    <property name="front" value="assets/treasure/treasure chest.png"/>
    <property name="open" value="assets/treasure/treasure chest.png"/>
   </properties>
  </object>
  <object id="53" name="treasure1" x="475" y="292.5" width="10.5" height="6">
   <properties>
    <property name="front" value="assets/treasure/treasure chest.png"/>
    <property name="open" value="assets/treasure/treasure chest.png"/>
   </properties>
  </object>
  <object id="54" name="treasure3" x="422" y="111" width="10.5" height="5">
   <properties>
    <property name="front" value="assets/treasure/treasure chest.png"/>
    <property name="open" value="assets/treasure/treasure chest.png"/>
   </properties>
  </object>
  <object id="55" name="treasure4" x="1110.5" y="62.5" width="15" height="5">
   <properties>
    <property name="front" value="assets/treasure/treasure chest.png"/>
    <property name="open" value="assets/treasure/treasure chest.png"/>
   </properties>
  </object>
  <object id="56" name="treasure5" x="890.5" y="903" width="9.5" height="5.5">
   <properties>
    <property name="front" value="assets/treasure/treasure chest.png"/>
    <property name="open" value="assets/treasure/treasure chest.png"/>
   </properties>
  </object>
 </objectgroup>
 <objectgroup id="11" name="explosion">
  <object id="69" name="explosion" x="369" y="787.667" width="5.33333" height="2.66667">
   <properties>
    <property name="explosion" value="assets/explosion/explosion.png"/>
   </properties>
  </object>
 </objectgroup>
 <objectgroup id="9" name="professor">
  <object id="50" name="professor" x="90" y="566.5" width="7" height="5">
   <properties>
    <property name="idle_left" value="assets/professor/idle_left.png"/>
    <property name="idle_right" value="assets/professor/idle_right.png"/>
    <property name="walkLeft" value="assets/professor/left.png"/>
    <property name="walkRight" value="assets/professor/right.png"/>
   </properties>
  </object>
 </objectgroup>
</map>
